(Exported by FreeCAD)
(Post Processor: mach3_mach4_post)
(Output Time:2026-05-23 20:45:34.639455)
(begin preamble)
G17 G54 G40 G49 G80 G90
G21
(begin operation: Fixture)
(machine: mach3_4, mm/min)
G54
(finish operation: Fixture)
(begin operation: 5mm Drill001)
(machine: mach3_4, mm/min)
(5mm Drill001)
M5
M6 T2 
G43 H2
(finish operation: 5mm Drill001)
(begin operation: DressupDogbone)
(machine: mach3_4, mm/min)
(Profile001)
(Compensated Tool Path. Diameter: 5.0)
G0 Z17.000
G0 X757.500 Y745.500
G0 Z15.000
G1 X757.500 Y745.500 Z7.000
G1 X757.500 Y729.500 Z7.000
G1 X758.232 Y728.768
G1 X757.500 Y729.500
G1 X750.500 Y729.500 Z7.000
G1 X749.768 Y728.768
G1 X750.500 Y729.500
G1 X750.500 Y745.500 Z7.000
G1 X749.768 Y746.232
G1 X750.500 Y745.500
G1 X757.500 Y745.500 Z7.000
G1 X758.232 Y746.232
G1 X757.500 Y745.500
G0 Z17.000
G0 X745.500 Y750.500 Z17.000
G0 X745.500 Y750.500 Z15.000
G1 X745.500 Y750.500 Z7.000
G1 X729.500 Y750.500 Z7.000
G1 X728.768 Y749.768
G1 X729.500 Y750.500
G1 X729.500 Y757.500 Z7.000
G1 X728.768 Y758.232
G1 X729.500 Y757.500
G1 X745.500 Y757.500 Z7.000
G1 X746.232 Y758.232
G1 X745.500 Y757.500
G1 X745.500 Y750.500 Z7.000
G1 X746.232 Y749.768
G1 X745.500 Y750.500
G0 Z17.000
G0 X673.500 Z17.000
G0 X673.500 Z15.000
G1 X673.500 Y750.500 Z7.000
G1 X657.500 Y750.500 Z7.000
G1 X656.768 Y749.768
G1 X657.500 Y750.500
G1 X657.500 Y757.500 Z7.000
G1 X656.768 Y758.232
G1 X657.500 Y757.500
G1 X673.500 Y757.500 Z7.000
G1 X674.232 Y758.232
G1 X673.500 Y757.500
G1 X673.500 Y750.500 Z7.000
G1 X674.232 Y749.768
G1 X673.500 Y750.500
G0 Z17.000
G0 X601.500 Z17.000
G0 X601.500 Z15.000
G1 X601.500 Y750.500 Z7.000
G1 X585.500 Y750.500 Z7.000
G1 X584.768 Y749.768
G1 X585.500 Y750.500
G1 X585.500 Y757.500 Z7.000
G1 X584.768 Y758.232
G1 X585.500 Y757.500
G1 X601.500 Y757.500 Z7.000
G1 X602.232 Y758.232
G1 X601.500 Y757.500
G1 X601.500 Y750.500 Z7.000
G1 X602.232 Y749.768
G1 X601.500 Y750.500
G0 Z17.000
G0 X580.500 Y745.500 Z17.000
G0 X580.500 Y745.500 Z15.000
G1 X580.500 Y745.500 Z7.000
G1 X580.500 Y729.500 Z7.000
G1 X581.232 Y728.768
G1 X580.500 Y729.500
G1 X573.500 Y729.500 Z7.000
G1 X572.768 Y728.768
G1 X573.500 Y729.500
G1 X573.500 Y745.500 Z7.000
G1 X572.768 Y746.232
G1 X573.500 Y745.500
G1 X580.500 Y745.500 Z7.000
G1 X581.232 Y746.232
G1 X580.500 Y745.500
G0 Z17.000
G0 X568.500 Y750.500 Z17.000
G0 X568.500 Y750.500 Z15.000
G1 X568.500 Y750.500 Z7.000
G1 X552.500 Y750.500 Z7.000
G1 X551.768 Y749.768
G1 X552.500 Y750.500
G1 X552.500 Y757.500 Z7.000
G1 X551.768 Y758.232
G1 X552.500 Y757.500
G1 X568.500 Y757.500 Z7.000
G1 X569.232 Y758.232
G1 X568.500 Y757.500
G1 X568.500 Y750.500 Z7.000
G1 X569.232 Y749.768
G1 X568.500 Y750.500
G0 Z17.000
G0 X496.500 Z17.000
G0 X496.500 Z15.000
G1 X496.500 Y750.500 Z7.000
G1 X480.500 Y750.500 Z7.000
G1 X479.768 Y749.768
G1 X480.500 Y750.500
G1 X480.500 Y757.500 Z7.000
G1 X479.768 Y758.232
G1 X480.500 Y757.500
G1 X496.500 Y757.500 Z7.000
G1 X497.232 Y758.232
G1 X496.500 Y757.500
G1 X496.500 Y750.500 Z7.000
G1 X497.232 Y749.768
G1 X496.500 Y750.500
G0 Z17.000
G0 X424.500 Z17.000
G0 X424.500 Z15.000
G1 X424.500 Y750.500 Z7.000
G1 X408.500 Y750.500 Z7.000
G1 X407.768 Y749.768
G1 X408.500 Y750.500
G1 X408.500 Y757.500 Z7.000
G1 X407.768 Y758.232
G1 X408.500 Y757.500
G1 X424.500 Y757.500 Z7.000
G1 X425.232 Y758.232
G1 X424.500 Y757.500
G1 X424.500 Y750.500 Z7.000
G1 X425.232 Y749.768
G1 X424.500 Y750.500
G0 Z17.000
G0 X403.500 Y745.500 Z17.000
G0 X403.500 Y745.500 Z15.000
G1 X403.500 Y745.500 Z7.000
G1 X403.500 Y729.500 Z7.000
G1 X404.232 Y728.768
G1 X403.500 Y729.500
G1 X396.500 Y729.500 Z7.000
G1 X395.768 Y728.768
G1 X396.500 Y729.500
G1 X396.500 Y745.500 Z7.000
G1 X395.768 Y746.232
G1 X396.500 Y745.500
G1 X403.500 Y745.500 Z7.000
G1 X404.232 Y746.232
G1 X403.500 Y745.500
G0 Z17.000
G0 X391.500 Y750.500 Z17.000
G0 X391.500 Y750.500 Z15.000
G1 X391.500 Y750.500 Z7.000
G1 X375.500 Y750.500 Z7.000
G1 X374.768 Y749.768
G1 X375.500 Y750.500
G1 X375.500 Y757.500 Z7.000
G1 X374.768 Y758.232
G1 X375.500 Y757.500
G1 X391.500 Y757.500 Z7.000
G1 X392.232 Y758.232
G1 X391.500 Y757.500
G1 X391.500 Y750.500 Z7.000
G1 X392.232 Y749.768
G1 X391.500 Y750.500
G0 Z17.000
G0 X319.500 Z17.000
G0 X319.500 Z15.000
G1 X319.500 Y750.500 Z7.000
G1 X303.500 Y750.500 Z7.000
G1 X302.768 Y749.768
G1 X303.500 Y750.500
G1 X303.500 Y757.500 Z7.000
G1 X302.768 Y758.232
G1 X303.500 Y757.500
G1 X319.500 Y757.500 Z7.000
G1 X320.232 Y758.232
G1 X319.500 Y757.500
G1 X319.500 Y750.500 Z7.000
G1 X320.232 Y749.768
G1 X319.500 Y750.500
G0 Z17.000
G0 X247.500 Z17.000
G0 X247.500 Z15.000
G1 X247.500 Y750.500 Z7.000
G1 X231.500 Y750.500 Z7.000
G1 X230.768 Y749.768
G1 X231.500 Y750.500
G1 X231.500 Y757.500 Z7.000
G1 X230.768 Y758.232
G1 X231.500 Y757.500
G1 X247.500 Y757.500 Z7.000
G1 X248.232 Y758.232
G1 X247.500 Y757.500
G1 X247.500 Y750.500 Z7.000
G1 X248.232 Y749.768
G1 X247.500 Y750.500
G0 Z17.000
G0 X226.500 Y745.500 Z17.000
G0 X226.500 Y745.500 Z15.000
G1 X226.500 Y745.500 Z7.000
G1 X226.500 Y729.500 Z7.000
G1 X227.232 Y728.768
G1 X226.500 Y729.500
G1 X219.500 Y729.500 Z7.000
G1 X218.768 Y728.768
G1 X219.500 Y729.500
G1 X219.500 Y745.500 Z7.000
G1 X218.768 Y746.232
G1 X219.500 Y745.500
G1 X226.500 Y745.500 Z7.000
G1 X227.232 Y746.232
G1 X226.500 Y745.500
G0 Z17.000
G0 X214.500 Y750.500 Z17.000
G0 X214.500 Y750.500 Z15.000
G1 X214.500 Y750.500 Z7.000
G1 X198.500 Y750.500 Z7.000
G1 X197.768 Y749.768
G1 X198.500 Y750.500
G1 X198.500 Y757.500 Z7.000
G1 X197.768 Y758.232
G1 X198.500 Y757.500
G1 X214.500 Y757.500 Z7.000
G1 X215.232 Y758.232
G1 X214.500 Y757.500
G1 X214.500 Y750.500 Z7.000
G1 X215.232 Y749.768
G1 X214.500 Y750.500
G0 Z17.000
G0 X142.500 Z17.000
G0 X142.500 Z15.000
G1 X142.500 Y750.500 Z7.000
G1 X126.500 Y750.500 Z7.000
G1 X125.768 Y749.768
G1 X126.500 Y750.500
G1 X126.500 Y757.500 Z7.000
G1 X125.768 Y758.232
G1 X126.500 Y757.500
G1 X142.500 Y757.500 Z7.000
G1 X143.232 Y758.232
G1 X142.500 Y757.500
G1 X142.500 Y750.500 Z7.000
G1 X143.232 Y749.768
G1 X142.500 Y750.500
G0 Z17.000
G0 X70.500 Z17.000
G0 X70.500 Z15.000
G1 X70.500 Y750.500 Z7.000
G1 X54.500 Y750.500 Z7.000
G1 X53.768 Y749.768
G1 X54.500 Y750.500
G1 X54.500 Y757.500 Z7.000
G1 X53.768 Y758.232
G1 X54.500 Y757.500
G1 X70.500 Y757.500 Z7.000
G1 X71.232 Y758.232
G1 X70.500 Y757.500
G1 X70.500 Y750.500 Z7.000
G1 X71.232 Y749.768
G1 X70.500 Y750.500
G0 Z17.000
G0 X49.500 Y745.500 Z17.000
G0 X49.500 Y745.500 Z15.000
G1 X49.500 Y745.500 Z7.000
G1 X49.500 Y729.500 Z7.000
G1 X50.232 Y728.768
G1 X49.500 Y729.500
G1 X42.500 Y729.500 Z7.000
G1 X41.768 Y728.768
G1 X42.500 Y729.500
G1 X42.500 Y745.500 Z7.000
G1 X41.768 Y746.232
G1 X42.500 Y745.500
G1 X49.500 Y745.500 Z7.000
G1 X50.232 Y746.232
G1 X49.500 Y745.500
G0 Z17.000
G0 X49.500 Y673.500 Z17.000
G0 X49.500 Y673.500 Z15.000
G1 X49.500 Y673.500 Z7.000
G1 X49.500 Y657.500 Z7.000
G1 X50.232 Y656.768
G1 X49.500 Y657.500
G1 X42.500 Y657.500 Z7.000
G1 X41.768 Y656.768
G1 X42.500 Y657.500
G1 X42.500 Y673.500 Z7.000
G1 X41.768 Y674.232
G1 X42.500 Y673.500
G1 X49.500 Y673.500 Z7.000
G1 X50.232 Y674.232
G1 X49.500 Y673.500
G0 Z17.000
G0 X49.500 Y601.500 Z17.000
G0 X49.500 Y601.500 Z15.000
G1 X49.500 Y601.500 Z7.000
G1 X49.500 Y585.500 Z7.000
G1 X50.232 Y584.768
G1 X49.500 Y585.500
G1 X42.500 Y585.500 Z7.000
G1 X41.768 Y584.768
G1 X42.500 Y585.500
G1 X42.500 Y601.500 Z7.000
G1 X41.768 Y602.232
G1 X42.500 Y601.500
G1 X49.500 Y601.500 Z7.000
G1 X50.232 Y602.232
G1 X49.500 Y601.500
G0 Z17.000
G0 X54.500 Y580.500 Z17.000
G0 X54.500 Y580.500 Z15.000
G1 X54.500 Y580.500 Z7.000
G1 X70.500 Y580.500 Z7.000
G1 X71.232 Y581.232
G1 X70.500 Y580.500
G1 X70.500 Y573.500 Z7.000
G1 X71.232 Y572.768
G1 X70.500 Y573.500
G1 X54.500 Y573.500 Z7.000
G1 X53.768 Y572.768
G1 X54.500 Y573.500
G1 X54.500 Y580.500 Z7.000
G1 X53.768 Y581.232
G1 X54.500 Y580.500
G0 Z17.000
G0 X49.500 Y568.500 Z17.000
G0 X49.500 Y568.500 Z15.000
G1 X49.500 Y568.500 Z7.000
G1 X49.500 Y552.500 Z7.000
G1 X50.232 Y551.768
G1 X49.500 Y552.500
G1 X42.500 Y552.500 Z7.000
G1 X41.768 Y551.768
G1 X42.500 Y552.500
G1 X42.500 Y568.500 Z7.000
G1 X41.768 Y569.232
G1 X42.500 Y568.500
G1 X49.500 Y568.500 Z7.000
G1 X50.232 Y569.232
G1 X49.500 Y568.500
G0 Z17.000
G0 X49.500 Y496.500 Z17.000
G0 X49.500 Y496.500 Z15.000
G1 X49.500 Y496.500 Z7.000
G1 X49.500 Y480.500 Z7.000
G1 X50.232 Y479.768
G1 X49.500 Y480.500
G1 X42.500 Y480.500 Z7.000
G1 X41.768 Y479.768
G1 X42.500 Y480.500
G1 X42.500 Y496.500 Z7.000
G1 X41.768 Y497.232
G1 X42.500 Y496.500
G1 X49.500 Y496.500 Z7.000
G1 X50.232 Y497.232
G1 X49.500 Y496.500
G0 Z17.000
G0 X49.500 Y424.500 Z17.000
G0 X49.500 Y424.500 Z15.000
G1 X49.500 Y424.500 Z7.000
G1 X49.500 Y408.500 Z7.000
G1 X50.232 Y407.768
G1 X49.500 Y408.500
G1 X42.500 Y408.500 Z7.000
G1 X41.768 Y407.768
G1 X42.500 Y408.500
G1 X42.500 Y424.500 Z7.000
G1 X41.768 Y425.232
G1 X42.500 Y424.500
G1 X49.500 Y424.500 Z7.000
G1 X50.232 Y425.232
G1 X49.500 Y424.500
G0 Z17.000
G0 X54.500 Y403.500 Z17.000
G0 X54.500 Y403.500 Z15.000
G1 X54.500 Y403.500 Z7.000
G1 X70.500 Y403.500 Z7.000
G1 X71.232 Y404.232
G1 X70.500 Y403.500
G1 X70.500 Y396.500 Z7.000
G1 X71.232 Y395.768
G1 X70.500 Y396.500
G1 X54.500 Y396.500 Z7.000
G1 X53.768 Y395.768
G1 X54.500 Y396.500
G1 X54.500 Y403.500 Z7.000
G1 X53.768 Y404.232
G1 X54.500 Y403.500
G0 Z17.000
G0 X49.500 Y391.500 Z17.000
G0 X49.500 Y391.500 Z15.000
G1 X49.500 Y391.500 Z7.000
G1 X49.500 Y375.500 Z7.000
G1 X50.232 Y374.768
G1 X49.500 Y375.500
G1 X42.500 Y375.500 Z7.000
G1 X41.768 Y374.768
G1 X42.500 Y375.500
G1 X42.500 Y391.500 Z7.000
G1 X41.768 Y392.232
G1 X42.500 Y391.500
G1 X49.500 Y391.500 Z7.000
G1 X50.232 Y392.232
G1 X49.500 Y391.500
G0 Z17.000
G0 X49.500 Y319.500 Z17.000
G0 X49.500 Y319.500 Z15.000
G1 X49.500 Y319.500 Z7.000
G1 X49.500 Y303.500 Z7.000
G1 X50.232 Y302.768
G1 X49.500 Y303.500
G1 X42.500 Y303.500 Z7.000
G1 X41.768 Y302.768
G1 X42.500 Y303.500
G1 X42.500 Y319.500 Z7.000
G1 X41.768 Y320.232
G1 X42.500 Y319.500
G1 X49.500 Y319.500 Z7.000
G1 X50.232 Y320.232
G1 X49.500 Y319.500
G0 Z17.000
G0 X49.500 Y247.500 Z17.000
G0 X49.500 Y247.500 Z15.000
G1 X49.500 Y247.500 Z7.000
G1 X49.500 Y231.500 Z7.000
G1 X50.232 Y230.768
G1 X49.500 Y231.500
G1 X42.500 Y231.500 Z7.000
G1 X41.768 Y230.768
G1 X42.500 Y231.500
G1 X42.500 Y247.500 Z7.000
G1 X41.768 Y248.232
G1 X42.500 Y247.500
G1 X49.500 Y247.500 Z7.000
G1 X50.232 Y248.232
G1 X49.500 Y247.500
G0 Z17.000
G0 X54.500 Y226.500 Z17.000
G0 X54.500 Y226.500 Z15.000
G1 X54.500 Y226.500 Z7.000
G1 X70.500 Y226.500 Z7.000
G1 X71.232 Y227.232
G1 X70.500 Y226.500
G1 X70.500 Y219.500 Z7.000
G1 X71.232 Y218.768
G1 X70.500 Y219.500
G1 X54.500 Y219.500 Z7.000
G1 X53.768 Y218.768
G1 X54.500 Y219.500
G1 X54.500 Y226.500 Z7.000
G1 X53.768 Y227.232
G1 X54.500 Y226.500
G0 Z17.000
G0 X49.500 Y214.500 Z17.000
G0 X49.500 Y214.500 Z15.000
G1 X49.500 Y214.500 Z7.000
G1 X49.500 Y198.500 Z7.000
G1 X50.232 Y197.768
G1 X49.500 Y198.500
G1 X42.500 Y198.500 Z7.000
G1 X41.768 Y197.768
G1 X42.500 Y198.500
G1 X42.500 Y214.500 Z7.000
G1 X41.768 Y215.232
G1 X42.500 Y214.500
G1 X49.500 Y214.500 Z7.000
G1 X50.232 Y215.232
G1 X49.500 Y214.500
G0 Z17.000
G0 X49.500 Y142.500 Z17.000
G0 X49.500 Y142.500 Z15.000
G1 X49.500 Y142.500 Z7.000
G1 X49.500 Y126.500 Z7.000
G1 X50.232 Y125.768
G1 X49.500 Y126.500
G1 X42.500 Y126.500 Z7.000
G1 X41.768 Y125.768
G1 X42.500 Y126.500
G1 X42.500 Y142.500 Z7.000
G1 X41.768 Y143.232
G1 X42.500 Y142.500
G1 X49.500 Y142.500 Z7.000
G1 X50.232 Y143.232
G1 X49.500 Y142.500
G0 Z17.000
G0 X49.500 Y70.500 Z17.000
G0 X49.500 Y70.500 Z15.000
G1 X49.500 Y70.500 Z7.000
G1 X49.500 Y54.500 Z7.000
G1 X50.232 Y53.768
G1 X49.500 Y54.500
G1 X42.500 Y54.500 Z7.000
G1 X41.768 Y53.768
G1 X42.500 Y54.500
G1 X42.500 Y70.500 Z7.000
G1 X41.768 Y71.232
G1 X42.500 Y70.500
G1 X49.500 Y70.500 Z7.000
G1 X50.232 Y71.232
G1 X49.500 Y70.500
G0 Z17.000
G0 X54.500 Y49.500 Z17.000
G0 X54.500 Y49.500 Z15.000
G1 X54.500 Y49.500 Z7.000
G1 X70.500 Y49.500 Z7.000
G1 X71.232 Y50.232
G1 X70.500 Y49.500
G1 X70.500 Y42.500 Z7.000
G1 X71.232 Y41.768
G1 X70.500 Y42.500
G1 X54.500 Y42.500 Z7.000
G1 X53.768 Y41.768
G1 X54.500 Y42.500
G1 X54.500 Y49.500 Z7.000
G1 X53.768 Y50.232
G1 X54.500 Y49.500
G0 Z17.000
G0 X126.500 Z17.000
G0 X126.500 Z15.000
G1 X126.500 Y49.500 Z7.000
G1 X142.500 Y49.500 Z7.000
G1 X143.232 Y50.232
G1 X142.500 Y49.500
G1 X142.500 Y42.500 Z7.000
G1 X143.232 Y41.768
G1 X142.500 Y42.500
G1 X126.500 Y42.500 Z7.000
G1 X125.768 Y41.768
G1 X126.500 Y42.500
G1 X126.500 Y49.500 Z7.000
G1 X125.768 Y50.232
G1 X126.500 Y49.500
G0 Z17.000
G0 X198.500 Z17.000
G0 X198.500 Z15.000
G1 X198.500 Y49.500 Z7.000
G1 X214.500 Y49.500 Z7.000
G1 X215.232 Y50.232
G1 X214.500 Y49.500
G1 X214.500 Y42.500 Z7.000
G1 X215.232 Y41.768
G1 X214.500 Y42.500
G1 X198.500 Y42.500 Z7.000
G1 X197.768 Y41.768
G1 X198.500 Y42.500
G1 X198.500 Y49.500 Z7.000
G1 X197.768 Y50.232
G1 X198.500 Y49.500
G0 Z17.000
G0 X219.500 Y54.500 Z17.000
G0 X219.500 Y54.500 Z15.000
G1 X219.500 Y54.500 Z7.000
G1 X219.500 Y70.500 Z7.000
G1 X218.768 Y71.232
G1 X219.500 Y70.500
G1 X226.500 Y70.500 Z7.000
G1 X227.232 Y71.232
G1 X226.500 Y70.500
G1 X226.500 Y54.500 Z7.000
G1 X227.232 Y53.768
G1 X226.500 Y54.500
G1 X219.500 Y54.500 Z7.000
G1 X218.768 Y53.768
G1 X219.500 Y54.500
G0 Z17.000
G0 X231.500 Y49.500 Z17.000
G0 X231.500 Y49.500 Z15.000
G1 X231.500 Y49.500 Z7.000
G1 X247.500 Y49.500 Z7.000
G1 X248.232 Y50.232
G1 X247.500 Y49.500
G1 X247.500 Y42.500 Z7.000
G1 X248.232 Y41.768
G1 X247.500 Y42.500
G1 X231.500 Y42.500 Z7.000
G1 X230.768 Y41.768
G1 X231.500 Y42.500
G1 X231.500 Y49.500 Z7.000
G1 X230.768 Y50.232
G1 X231.500 Y49.500
G0 Z17.000
G0 X303.500 Z17.000
G0 X303.500 Z15.000
G1 X303.500 Y49.500 Z7.000
G1 X319.500 Y49.500 Z7.000
G1 X320.232 Y50.232
G1 X319.500 Y49.500
G1 X319.500 Y42.500 Z7.000
G1 X320.232 Y41.768
G1 X319.500 Y42.500
G1 X303.500 Y42.500 Z7.000
G1 X302.768 Y41.768
G1 X303.500 Y42.500
G1 X303.500 Y49.500 Z7.000
G1 X302.768 Y50.232
G1 X303.500 Y49.500
G0 Z17.000
G0 X375.500 Z17.000
G0 X375.500 Z15.000
G1 X375.500 Y49.500 Z7.000
G1 X391.500 Y49.500 Z7.000
G1 X392.232 Y50.232
G1 X391.500 Y49.500
G1 X391.500 Y42.500 Z7.000
G1 X392.232 Y41.768
G1 X391.500 Y42.500
G1 X375.500 Y42.500 Z7.000
G1 X374.768 Y41.768
G1 X375.500 Y42.500
G1 X375.500 Y49.500 Z7.000
G1 X374.768 Y50.232
G1 X375.500 Y49.500
G0 Z17.000
G0 X396.500 Y54.500 Z17.000
G0 X396.500 Y54.500 Z15.000
G1 X396.500 Y54.500 Z7.000
G1 X396.500 Y70.500 Z7.000
G1 X395.768 Y71.232
G1 X396.500 Y70.500
G1 X403.500 Y70.500 Z7.000
G1 X404.232 Y71.232
G1 X403.500 Y70.500
G1 X403.500 Y54.500 Z7.000
G1 X404.232 Y53.768
G1 X403.500 Y54.500
G1 X396.500 Y54.500 Z7.000
G1 X395.768 Y53.768
G1 X396.500 Y54.500
G0 Z17.000
G0 X408.500 Y49.500 Z17.000
G0 X408.500 Y49.500 Z15.000
G1 X408.500 Y49.500 Z7.000
G1 X424.500 Y49.500 Z7.000
G1 X425.232 Y50.232
G1 X424.500 Y49.500
G1 X424.500 Y42.500 Z7.000
G1 X425.232 Y41.768
G1 X424.500 Y42.500
G1 X408.500 Y42.500 Z7.000
G1 X407.768 Y41.768
G1 X408.500 Y42.500
G1 X408.500 Y49.500 Z7.000
G1 X407.768 Y50.232
G1 X408.500 Y49.500
G0 Z17.000
G0 X480.500 Z17.000
G0 X480.500 Z15.000
G1 X480.500 Y49.500 Z7.000
G1 X496.500 Y49.500 Z7.000
G1 X497.232 Y50.232
G1 X496.500 Y49.500
G1 X496.500 Y42.500 Z7.000
G1 X497.232 Y41.768
G1 X496.500 Y42.500
G1 X480.500 Y42.500 Z7.000
G1 X479.768 Y41.768
G1 X480.500 Y42.500
G1 X480.500 Y49.500 Z7.000
G1 X479.768 Y50.232
G1 X480.500 Y49.500
G0 Z17.000
G0 X552.500 Z17.000
G0 X552.500 Z15.000
G1 X552.500 Y49.500 Z7.000
G1 X568.500 Y49.500 Z7.000
G1 X569.232 Y50.232
G1 X568.500 Y49.500
G1 X568.500 Y42.500 Z7.000
G1 X569.232 Y41.768
G1 X568.500 Y42.500
G1 X552.500 Y42.500 Z7.000
G1 X551.768 Y41.768
G1 X552.500 Y42.500
G1 X552.500 Y49.500 Z7.000
G1 X551.768 Y50.232
G1 X552.500 Y49.500
G0 Z17.000
G0 X573.500 Y54.500 Z17.000
G0 X573.500 Y54.500 Z15.000
G1 X573.500 Y54.500 Z7.000
G1 X573.500 Y70.500 Z7.000
G1 X572.768 Y71.232
G1 X573.500 Y70.500
G1 X580.500 Y70.500 Z7.000
G1 X581.232 Y71.232
G1 X580.500 Y70.500
G1 X580.500 Y54.500 Z7.000
G1 X581.232 Y53.768
G1 X580.500 Y54.500
G1 X573.500 Y54.500 Z7.000
G1 X572.768 Y53.768
G1 X573.500 Y54.500
G0 Z17.000
G0 X585.500 Y49.500 Z17.000
G0 X585.500 Y49.500 Z15.000
G1 X585.500 Y49.500 Z7.000
G1 X601.500 Y49.500 Z7.000
G1 X602.232 Y50.232
G1 X601.500 Y49.500
G1 X601.500 Y42.500 Z7.000
G1 X602.232 Y41.768
G1 X601.500 Y42.500
G1 X585.500 Y42.500 Z7.000
G1 X584.768 Y41.768
G1 X585.500 Y42.500
G1 X585.500 Y49.500 Z7.000
G1 X584.768 Y50.232
G1 X585.500 Y49.500
G0 Z17.000
G0 X657.500 Z17.000
G0 X657.500 Z15.000
G1 X657.500 Y49.500 Z7.000
G1 X673.500 Y49.500 Z7.000
G1 X674.232 Y50.232
G1 X673.500 Y49.500
G1 X673.500 Y42.500 Z7.000
G1 X674.232 Y41.768
G1 X673.500 Y42.500
G1 X657.500 Y42.500 Z7.000
G1 X656.768 Y41.768
G1 X657.500 Y42.500
G1 X657.500 Y49.500 Z7.000
G1 X656.768 Y50.232
G1 X657.500 Y49.500
G0 Z17.000
G0 X729.500 Z17.000
G0 X729.500 Z15.000
G1 X729.500 Y49.500 Z7.000
G1 X745.500 Y49.500 Z7.000
G1 X746.232 Y50.232
G1 X745.500 Y49.500
G1 X745.500 Y42.500 Z7.000
G1 X746.232 Y41.768
G1 X745.500 Y42.500
G1 X729.500 Y42.500 Z7.000
G1 X728.768 Y41.768
G1 X729.500 Y42.500
G1 X729.500 Y49.500 Z7.000
G1 X728.768 Y50.232
G1 X729.500 Y49.500
G0 Z17.000
G0 X750.500 Y54.500 Z17.000
G0 X750.500 Y54.500 Z15.000
G1 X750.500 Y54.500 Z7.000
G1 X750.500 Y70.500 Z7.000
G1 X749.768 Y71.232
G1 X750.500 Y70.500
G1 X757.500 Y70.500 Z7.000
G1 X758.232 Y71.232
G1 X757.500 Y70.500
G1 X757.500 Y54.500 Z7.000
G1 X758.232 Y53.768
G1 X757.500 Y54.500
G1 X750.500 Y54.500 Z7.000
G1 X749.768 Y53.768
G1 X750.500 Y54.500
G0 Z17.000
G0 Y126.500 Z17.000
G0 Y126.500 Z15.000
G1 X750.500 Y126.500 Z7.000
G1 X750.500 Y142.500 Z7.000
G1 X749.768 Y143.232
G1 X750.500 Y142.500
G1 X757.500 Y142.500 Z7.000
G1 X758.232 Y143.232
G1 X757.500 Y142.500
G1 X757.500 Y126.500 Z7.000
G1 X758.232 Y125.768
G1 X757.500 Y126.500
G1 X750.500 Y126.500 Z7.000
G1 X749.768 Y125.768
G1 X750.500 Y126.500
G0 Z17.000
G0 Y198.500 Z17.000
G0 Y198.500 Z15.000
G1 X750.500 Y198.500 Z7.000
G1 X750.500 Y214.500 Z7.000
G1 X749.768 Y215.232
G1 X750.500 Y214.500
G1 X757.500 Y214.500 Z7.000
G1 X758.232 Y215.232
G1 X757.500 Y214.500
G1 X757.500 Y198.500 Z7.000
G1 X758.232 Y197.768
G1 X757.500 Y198.500
G1 X750.500 Y198.500 Z7.000
G1 X749.768 Y197.768
G1 X750.500 Y198.500
G0 Z17.000
G0 X745.500 Y219.500 Z17.000
G0 X745.500 Y219.500 Z15.000
G1 X745.500 Y219.500 Z7.000
G1 X729.500 Y219.500 Z7.000
G1 X728.768 Y218.768
G1 X729.500 Y219.500
G1 X729.500 Y226.500 Z7.000
G1 X728.768 Y227.232
G1 X729.500 Y226.500
G1 X745.500 Y226.500 Z7.000
G1 X746.232 Y227.232
G1 X745.500 Y226.500
G1 X745.500 Y219.500 Z7.000
G1 X746.232 Y218.768
G1 X745.500 Y219.500
G0 Z17.000
G0 X750.500 Y231.500 Z17.000
G0 X750.500 Y231.500 Z15.000
G1 X750.500 Y231.500 Z7.000
G1 X750.500 Y247.500 Z7.000
G1 X749.768 Y248.232
G1 X750.500 Y247.500
G1 X757.500 Y247.500 Z7.000
G1 X758.232 Y248.232
G1 X757.500 Y247.500
G1 X757.500 Y231.500 Z7.000
G1 X758.232 Y230.768
G1 X757.500 Y231.500
G1 X750.500 Y231.500 Z7.000
G1 X749.768 Y230.768
G1 X750.500 Y231.500
G0 Z17.000
G0 Y303.500 Z17.000
G0 Y303.500 Z15.000
G1 X750.500 Y303.500 Z7.000
G1 X750.500 Y319.500 Z7.000
G1 X749.768 Y320.232
G1 X750.500 Y319.500
G1 X757.500 Y319.500 Z7.000
G1 X758.232 Y320.232
G1 X757.500 Y319.500
G1 X757.500 Y303.500 Z7.000
G1 X758.232 Y302.768
G1 X757.500 Y303.500
G1 X750.500 Y303.500 Z7.000
G1 X749.768 Y302.768
G1 X750.500 Y303.500
G0 Z17.000
G0 Y375.500 Z17.000
G0 Y375.500 Z15.000
G1 X750.500 Y375.500 Z7.000
G1 X750.500 Y391.500 Z7.000
G1 X749.768 Y392.232
G1 X750.500 Y391.500
G1 X757.500 Y391.500 Z7.000
G1 X758.232 Y392.232
G1 X757.500 Y391.500
G1 X757.500 Y375.500 Z7.000
G1 X758.232 Y374.768
G1 X757.500 Y375.500
G1 X750.500 Y375.500 Z7.000
G1 X749.768 Y374.768
G1 X750.500 Y375.500
G0 Z17.000
G0 X745.500 Y396.500 Z17.000
G0 X745.500 Y396.500 Z15.000
G1 X745.500 Y396.500 Z7.000
G1 X729.500 Y396.500 Z7.000
G1 X728.768 Y395.768
G1 X729.500 Y396.500
G1 X729.500 Y403.500 Z7.000
G1 X728.768 Y404.232
G1 X729.500 Y403.500
G1 X745.500 Y403.500 Z7.000
G1 X746.232 Y404.232
G1 X745.500 Y403.500
G1 X745.500 Y396.500 Z7.000
G1 X746.232 Y395.768
G1 X745.500 Y396.500
G0 Z17.000
G0 X750.500 Y408.500 Z17.000
G0 X750.500 Y408.500 Z15.000
G1 X750.500 Y408.500 Z7.000
G1 X750.500 Y424.500 Z7.000
G1 X749.768 Y425.232
G1 X750.500 Y424.500
G1 X757.500 Y424.500 Z7.000
G1 X758.232 Y425.232
G1 X757.500 Y424.500
G1 X757.500 Y408.500 Z7.000
G1 X758.232 Y407.768
G1 X757.500 Y408.500
G1 X750.500 Y408.500 Z7.000
G1 X749.768 Y407.768
G1 X750.500 Y408.500
G0 Z17.000
G0 Y480.500 Z17.000
G0 Y480.500 Z15.000
G1 X750.500 Y480.500 Z7.000
G1 X750.500 Y496.500 Z7.000
G1 X749.768 Y497.232
G1 X750.500 Y496.500
G1 X757.500 Y496.500 Z7.000
G1 X758.232 Y497.232
G1 X757.500 Y496.500
G1 X757.500 Y480.500 Z7.000
G1 X758.232 Y479.768
G1 X757.500 Y480.500
G1 X750.500 Y480.500 Z7.000
G1 X749.768 Y479.768
G1 X750.500 Y480.500
G0 Z17.000
G0 Y552.500 Z17.000
G0 Y552.500 Z15.000
G1 X750.500 Y552.500 Z7.000
G1 X750.500 Y568.500 Z7.000
G1 X749.768 Y569.232
G1 X750.500 Y568.500
G1 X757.500 Y568.500 Z7.000
G1 X758.232 Y569.232
G1 X757.500 Y568.500
G1 X757.500 Y552.500 Z7.000
G1 X758.232 Y551.768
G1 X757.500 Y552.500
G1 X750.500 Y552.500 Z7.000
G1 X749.768 Y551.768
G1 X750.500 Y552.500
G0 Z17.000
G0 X745.500 Y573.500 Z17.000
G0 X745.500 Y573.500 Z15.000
G1 X745.500 Y573.500 Z7.000
G1 X729.500 Y573.500 Z7.000
G1 X728.768 Y572.768
G1 X729.500 Y573.500
G1 X729.500 Y580.500 Z7.000
G1 X728.768 Y581.232
G1 X729.500 Y580.500
G1 X745.500 Y580.500 Z7.000
G1 X746.232 Y581.232
G1 X745.500 Y580.500
G1 X745.500 Y573.500 Z7.000
G1 X746.232 Y572.768
G1 X745.500 Y573.500
G0 Z17.000
G0 X750.500 Y585.500 Z17.000
G0 X750.500 Y585.500 Z15.000
G1 X750.500 Y585.500 Z7.000
G1 X750.500 Y601.500 Z7.000
G1 X749.768 Y602.232
G1 X750.500 Y601.500
G1 X757.500 Y601.500 Z7.000
G1 X758.232 Y602.232
G1 X757.500 Y601.500
G1 X757.500 Y585.500 Z7.000
G1 X758.232 Y584.768
G1 X757.500 Y585.500
G1 X750.500 Y585.500 Z7.000
G1 X749.768 Y584.768
G1 X750.500 Y585.500
G0 Z17.000
G0 Y657.500 Z17.000
G0 Y657.500 Z15.000
G1 X750.500 Y657.500 Z7.000
G1 X750.500 Y673.500 Z7.000
G1 X749.768 Y674.232
G1 X750.500 Y673.500
G1 X757.500 Y673.500 Z7.000
G1 X758.232 Y674.232
G1 X757.500 Y673.500
G1 X757.500 Y657.500 Z7.000
G1 X758.232 Y656.768
G1 X757.500 Y657.500
G1 X750.500 Y657.500 Z7.000
G1 X749.768 Y656.768
G1 X750.500 Y657.500
G0 Z17.000
G0 X673.500 Y580.500 Z17.000
G0 X673.500 Y580.500 Z15.000
G1 X673.500 Y580.500 Z7.000
G1 X673.500 Y573.500 Z7.000
G1 X674.232 Y572.768
G1 X673.500 Y573.500
G1 X657.500 Y573.500 Z7.000
G1 X656.768 Y572.768
G1 X657.500 Y573.500
G1 X657.500 Y580.500 Z7.000
G1 X656.768 Y581.232
G1 X657.500 Y580.500
G1 X673.500 Y580.500 Z7.000
G1 X674.232 Y581.232
G1 X673.500 Y580.500
G0 Z17.000
G0 X601.500 Z17.000
G0 X601.500 Z15.000
G1 X601.500 Y580.500 Z7.000
G1 X601.500 Y573.500 Z7.000
G1 X602.232 Y572.768
G1 X601.500 Y573.500
G1 X583.000 Y573.500 Z7.000
G3 X580.500 Y571.000 Z7.000 I0.000 J-2.500
G1 X580.500 Y552.500 Z7.000
G1 X581.232 Y551.768
G1 X580.500 Y552.500
G1 X573.500 Y552.500 Z7.000
G1 X572.768 Y551.768
G1 X573.500 Y552.500
G1 X573.500 Y571.000 Z7.000
G3 X571.000 Y573.500 Z7.000 I-2.500 J-0.000
G1 X552.500 Y573.500 Z7.000
G1 X551.768 Y572.768
G1 X552.500 Y573.500
G1 X552.500 Y580.500 Z7.000
G1 X551.768 Y581.232
G1 X552.500 Y580.500
G1 X571.000 Y580.500 Z7.000
G3 X573.500 Y583.000 Z7.000 I-0.000 J2.500
G1 X573.500 Y601.500 Z7.000
G1 X572.768 Y602.232
G1 X573.500 Y601.500
G1 X580.500 Y601.500 Z7.000
G1 X581.232 Y602.232
G1 X580.500 Y601.500
G1 X580.500 Y583.000 Z7.000
G3 X583.000 Y580.500 Z7.000 I2.500 J0.000
G1 X601.500 Y580.500 Z7.000
G1 X602.232 Y581.232
G1 X601.500 Y580.500
G0 Z17.000
G0 X580.500 Y657.500 Z17.000
G0 X580.500 Y657.500 Z15.000
G1 X580.500 Y657.500 Z7.000
G1 X573.500 Y657.500 Z7.000
G1 X572.768 Y656.768
G1 X573.500 Y657.500
G1 X573.500 Y673.500 Z7.000
G1 X572.768 Y674.232
G1 X573.500 Y673.500
G1 X580.500 Y673.500 Z7.000
G1 X581.232 Y674.232
G1 X580.500 Y673.500
G1 X580.500 Y657.500 Z7.000
G1 X581.232 Y656.768
G1 X580.500 Y657.500
G0 Z17.000
G0 X496.500 Y580.500 Z17.000
G0 X496.500 Y580.500 Z15.000
G1 X496.500 Y580.500 Z7.000
G1 X496.500 Y573.500 Z7.000
G1 X497.232 Y572.768
G1 X496.500 Y573.500
G1 X480.500 Y573.500 Z7.000
G1 X479.768 Y572.768
G1 X480.500 Y573.500
G1 X480.500 Y580.500 Z7.000
G1 X479.768 Y581.232
G1 X480.500 Y580.500
G1 X496.500 Y580.500 Z7.000
G1 X497.232 Y581.232
G1 X496.500 Y580.500
G0 Z17.000
G0 X424.500 Z17.000
G0 X424.500 Z15.000
G1 X424.500 Y580.500 Z7.000
G1 X424.500 Y573.500 Z7.000
G1 X425.232 Y572.768
G1 X424.500 Y573.500
G1 X406.000 Y573.500 Z7.000
G3 X403.500 Y571.000 Z7.000 I0.000 J-2.500
G1 X403.500 Y552.500 Z7.000
G1 X404.232 Y551.768
G1 X403.500 Y552.500
G1 X396.500 Y552.500 Z7.000
G1 X395.768 Y551.768
G1 X396.500 Y552.500
G1 X396.500 Y571.000 Z7.000
G3 X394.000 Y573.500 Z7.000 I-2.500 J-0.000
G1 X375.500 Y573.500 Z7.000
G1 X374.768 Y572.768
G1 X375.500 Y573.500
G1 X375.500 Y580.500 Z7.000
G1 X374.768 Y581.232
G1 X375.500 Y580.500
G1 X394.000 Y580.500 Z7.000
G3 X396.500 Y583.000 Z7.000 I-0.000 J2.500
G1 X396.500 Y601.500 Z7.000
G1 X395.768 Y602.232
G1 X396.500 Y601.500
G1 X403.500 Y601.500 Z7.000
G1 X404.232 Y602.232
G1 X403.500 Y601.500
G1 X403.500 Y583.000 Z7.000
G3 X406.000 Y580.500 Z7.000 I2.500 J0.000
G1 X424.500 Y580.500 Z7.000
G1 X425.232 Y581.232
G1 X424.500 Y580.500
G0 Z17.000
G0 X403.500 Y657.500 Z17.000
G0 X403.500 Y657.500 Z15.000
G1 X403.500 Y657.500 Z7.000
G1 X396.500 Y657.500 Z7.000
G1 X395.768 Y656.768
G1 X396.500 Y657.500
G1 X396.500 Y673.500 Z7.000
G1 X395.768 Y674.232
G1 X396.500 Y673.500
G1 X403.500 Y673.500 Z7.000
G1 X404.232 Y674.232
G1 X403.500 Y673.500
G1 X403.500 Y657.500 Z7.000
G1 X404.232 Y656.768
G1 X403.500 Y657.500
G0 Z17.000
G0 X319.500 Y580.500 Z17.000
G0 X319.500 Y580.500 Z15.000
G1 X319.500 Y580.500 Z7.000
G1 X319.500 Y573.500 Z7.000
G1 X320.232 Y572.768
G1 X319.500 Y573.500
G1 X303.500 Y573.500 Z7.000
G1 X302.768 Y572.768
G1 X303.500 Y573.500
G1 X303.500 Y580.500 Z7.000
G1 X302.768 Y581.232
G1 X303.500 Y580.500
G1 X319.500 Y580.500 Z7.000
G1 X320.232 Y581.232
G1 X319.500 Y580.500
G0 Z17.000
G0 X247.500 Z17.000
G0 X247.500 Z15.000
G1 X247.500 Y580.500 Z7.000
G1 X247.500 Y573.500 Z7.000
G1 X248.232 Y572.768
G1 X247.500 Y573.500
G1 X229.000 Y573.500 Z7.000
G3 X226.500 Y571.000 Z7.000 I0.000 J-2.500
G1 X226.500 Y552.500 Z7.000
G1 X227.232 Y551.768
G1 X226.500 Y552.500
G1 X219.500 Y552.500 Z7.000
G1 X218.768 Y551.768
G1 X219.500 Y552.500
G1 X219.500 Y571.000 Z7.000
G3 X217.000 Y573.500 Z7.000 I-2.500 J-0.000
G1 X198.500 Y573.500 Z7.000
G1 X197.768 Y572.768
G1 X198.500 Y573.500
G1 X198.500 Y580.500 Z7.000
G1 X197.768 Y581.232
G1 X198.500 Y580.500
G1 X217.000 Y580.500 Z7.000
G3 X219.500 Y583.000 Z7.000 I-0.000 J2.500
G1 X219.500 Y601.500 Z7.000
G1 X218.768 Y602.232
G1 X219.500 Y601.500
G1 X226.500 Y601.500 Z7.000
G1 X227.232 Y602.232
G1 X226.500 Y601.500
G1 X226.500 Y583.000 Z7.000
G3 X229.000 Y580.500 Z7.000 I2.500 J0.000
G1 X247.500 Y580.500 Z7.000
G1 X248.232 Y581.232
G1 X247.500 Y580.500
G0 Z17.000
G0 X226.500 Y657.500 Z17.000
G0 X226.500 Y657.500 Z15.000
G1 X226.500 Y657.500 Z7.000
G1 X219.500 Y657.500 Z7.000
G1 X218.768 Y656.768
G1 X219.500 Y657.500
G1 X219.500 Y673.500 Z7.000
G1 X218.768 Y674.232
G1 X219.500 Y673.500
G1 X226.500 Y673.500 Z7.000
G1 X227.232 Y674.232
G1 X226.500 Y673.500
G1 X226.500 Y657.500 Z7.000
G1 X227.232 Y656.768
G1 X226.500 Y657.500
G0 Z17.000
G0 X142.500 Y580.500 Z17.000
G0 X142.500 Y580.500 Z15.000
G1 X142.500 Y580.500 Z7.000
G1 X142.500 Y573.500 Z7.000
G1 X143.232 Y572.768
G1 X142.500 Y573.500
G1 X126.500 Y573.500 Z7.000
G1 X125.768 Y572.768
G1 X126.500 Y573.500
G1 X126.500 Y580.500 Z7.000
G1 X125.768 Y581.232
G1 X126.500 Y580.500
G1 X142.500 Y580.500 Z7.000
G1 X143.232 Y581.232
G1 X142.500 Y580.500
G0 Z17.000
G0 X219.500 Y496.500 Z17.000
G0 X219.500 Y496.500 Z15.000
G1 X219.500 Y496.500 Z7.000
G1 X226.500 Y496.500 Z7.000
G1 X227.232 Y497.232
G1 X226.500 Y496.500
G1 X226.500 Y480.500 Z7.000
G1 X227.232 Y479.768
G1 X226.500 Y480.500
G1 X219.500 Y480.500 Z7.000
G1 X218.768 Y479.768
G1 X219.500 Y480.500
G1 X219.500 Y496.500 Z7.000
G1 X218.768 Y497.232
G1 X219.500 Y496.500
G0 Z17.000
G0 Y424.500 Z17.000
G0 Y424.500 Z15.000
G1 X219.500 Y424.500 Z7.000
G1 X226.500 Y424.500 Z7.000
G1 X227.232 Y425.232
G1 X226.500 Y424.500
G1 X226.500 Y406.000 Z7.000
G3 X229.000 Y403.500 Z7.000 I2.500 J0.000
G1 X247.500 Y403.500 Z7.000
G1 X248.232 Y404.232
G1 X247.500 Y403.500
G1 X247.500 Y396.500 Z7.000
G1 X248.232 Y395.768
G1 X247.500 Y396.500
G1 X229.000 Y396.500 Z7.000
G3 X226.500 Y394.000 Z7.000 I0.000 J-2.500
G1 X226.500 Y375.500 Z7.000
G1 X227.232 Y374.768
G1 X226.500 Y375.500
G1 X219.500 Y375.500 Z7.000
G1 X218.768 Y374.768
G1 X219.500 Y375.500
G1 X219.500 Y394.000 Z7.000
G3 X217.000 Y396.500 Z7.000 I-2.500 J-0.000
G1 X198.500 Y396.500 Z7.000
G1 X197.768 Y395.768
G1 X198.500 Y396.500
G1 X198.500 Y403.500 Z7.000
G1 X197.768 Y404.232
G1 X198.500 Y403.500
G1 X217.000 Y403.500 Z7.000
G3 X219.500 Y406.000 Z7.000 I-0.000 J2.500
G1 X219.500 Y424.500 Z7.000
G1 X218.768 Y425.232
G1 X219.500 Y424.500
G0 Z17.000
G0 X142.500 Y403.500 Z17.000
G0 X142.500 Y403.500 Z15.000
G1 X142.500 Y403.500 Z7.000
G1 X142.500 Y396.500 Z7.000
G1 X143.232 Y395.768
G1 X142.500 Y396.500
G1 X126.500 Y396.500 Z7.000
G1 X125.768 Y395.768
G1 X126.500 Y396.500
G1 X126.500 Y403.500 Z7.000
G1 X125.768 Y404.232
G1 X126.500 Y403.500
G1 X142.500 Y403.500 Z7.000
G1 X143.232 Y404.232
G1 X142.500 Y403.500
G0 Z17.000
G0 X219.500 Y319.500 Z17.000
G0 X219.500 Y319.500 Z15.000
G1 X219.500 Y319.500 Z7.000
G1 X226.500 Y319.500 Z7.000
G1 X227.232 Y320.232
G1 X226.500 Y319.500
G1 X226.500 Y303.500 Z7.000
G1 X227.232 Y302.768
G1 X226.500 Y303.500
G1 X219.500 Y303.500 Z7.000
G1 X218.768 Y302.768
G1 X219.500 Y303.500
G1 X219.500 Y319.500 Z7.000
G1 X218.768 Y320.232
G1 X219.500 Y319.500
G0 Z17.000
G0 Y247.500 Z17.000
G0 Y247.500 Z15.000
G1 X219.500 Y247.500 Z7.000
G1 X226.500 Y247.500 Z7.000
G1 X227.232 Y248.232
G1 X226.500 Y247.500
G1 X226.500 Y229.000 Z7.000
G3 X229.000 Y226.500 Z7.000 I2.500 J0.000
G1 X247.500 Y226.500 Z7.000
G1 X248.232 Y227.232
G1 X247.500 Y226.500
G1 X247.500 Y219.500 Z7.000
G1 X248.232 Y218.768
G1 X247.500 Y219.500
G1 X229.000 Y219.500 Z7.000
G3 X226.500 Y217.000 Z7.000 I0.000 J-2.500
G1 X226.500 Y198.500 Z7.000
G1 X227.232 Y197.768
G1 X226.500 Y198.500
G1 X219.500 Y198.500 Z7.000
G1 X218.768 Y197.768
G1 X219.500 Y198.500
G1 X219.500 Y217.000 Z7.000
G3 X217.000 Y219.500 Z7.000 I-2.500 J-0.000
G1 X198.500 Y219.500 Z7.000
G1 X197.768 Y218.768
G1 X198.500 Y219.500
G1 X198.500 Y226.500 Z7.000
G1 X197.768 Y227.232
G1 X198.500 Y226.500
G1 X217.000 Y226.500 Z7.000
G3 X219.500 Y229.000 Z7.000 I-0.000 J2.500
G1 X219.500 Y247.500 Z7.000
G1 X218.768 Y248.232
G1 X219.500 Y247.500
G0 Z17.000
G0 X142.500 Y226.500 Z17.000
G0 X142.500 Y226.500 Z15.000
G1 X142.500 Y226.500 Z7.000
G1 X142.500 Y219.500 Z7.000
G1 X143.232 Y218.768
G1 X142.500 Y219.500
G1 X126.500 Y219.500 Z7.000
G1 X125.768 Y218.768
G1 X126.500 Y219.500
G1 X126.500 Y226.500 Z7.000
G1 X125.768 Y227.232
G1 X126.500 Y226.500
G1 X142.500 Y226.500 Z7.000
G1 X143.232 Y227.232
G1 X142.500 Y226.500
G0 Z17.000
G0 X219.500 Y142.500 Z17.000
G0 X219.500 Y142.500 Z15.000
G1 X219.500 Y142.500 Z7.000
G1 X226.500 Y142.500 Z7.000
G1 X227.232 Y143.232
G1 X226.500 Y142.500
G1 X226.500 Y126.500 Z7.000
G1 X227.232 Y125.768
G1 X226.500 Y126.500
G1 X219.500 Y126.500 Z7.000
G1 X218.768 Y125.768
G1 X219.500 Y126.500
G1 X219.500 Y142.500 Z7.000
G1 X218.768 Y143.232
G1 X219.500 Y142.500
G0 Z17.000
G0 X303.500 Y219.500 Z17.000
G0 X303.500 Y219.500 Z15.000
G1 X303.500 Y219.500 Z7.000
G1 X303.500 Y226.500 Z7.000
G1 X302.768 Y227.232
G1 X303.500 Y226.500
G1 X319.500 Y226.500 Z7.000
G1 X320.232 Y227.232
G1 X319.500 Y226.500
G1 X319.500 Y219.500 Z7.000
G1 X320.232 Y218.768
G1 X319.500 Y219.500
G1 X303.500 Y219.500 Z7.000
G1 X302.768 Y218.768
G1 X303.500 Y219.500
G0 Z17.000
G0 X375.500 Z17.000
G0 X375.500 Z15.000
G1 X375.500 Y219.500 Z7.000
G1 X375.500 Y226.500 Z7.000
G1 X374.768 Y227.232
G1 X375.500 Y226.500
G1 X394.000 Y226.500 Z7.000
G3 X396.500 Y229.000 Z7.000 I-0.000 J2.500
G1 X396.500 Y247.500 Z7.000
G1 X395.768 Y248.232
G1 X396.500 Y247.500
G1 X403.500 Y247.500 Z7.000
G1 X404.232 Y248.232
G1 X403.500 Y247.500
G1 X403.500 Y229.000 Z7.000
G3 X406.000 Y226.500 Z7.000 I2.500 J0.000
G1 X424.500 Y226.500 Z7.000
G1 X425.232 Y227.232
G1 X424.500 Y226.500
G1 X424.500 Y219.500 Z7.000
G1 X425.232 Y218.768
G1 X424.500 Y219.500
G1 X406.000 Y219.500 Z7.000
G3 X403.500 Y217.000 Z7.000 I0.000 J-2.500
G1 X403.500 Y198.500 Z7.000
G1 X404.232 Y197.768
G1 X403.500 Y198.500
G1 X396.500 Y198.500 Z7.000
G1 X395.768 Y197.768
G1 X396.500 Y198.500
G1 X396.500 Y217.000 Z7.000
G3 X394.000 Y219.500 Z7.000 I-2.500 J-0.000
G1 X375.500 Y219.500 Z7.000
G1 X374.768 Y218.768
G1 X375.500 Y219.500
G0 Z17.000
G0 X396.500 Y142.500 Z17.000
G0 X396.500 Y142.500 Z15.000
G1 X396.500 Y142.500 Z7.000
G1 X403.500 Y142.500 Z7.000
G1 X404.232 Y143.232
G1 X403.500 Y142.500
G1 X403.500 Y126.500 Z7.000
G1 X404.232 Y125.768
G1 X403.500 Y126.500
G1 X396.500 Y126.500 Z7.000
G1 X395.768 Y125.768
G1 X396.500 Y126.500
G1 X396.500 Y142.500 Z7.000
G1 X395.768 Y143.232
G1 X396.500 Y142.500
G0 Z17.000
G0 X480.500 Y219.500 Z17.000
G0 X480.500 Y219.500 Z15.000
G1 X480.500 Y219.500 Z7.000
G1 X480.500 Y226.500 Z7.000
G1 X479.768 Y227.232
G1 X480.500 Y226.500
G1 X496.500 Y226.500 Z7.000
G1 X497.232 Y227.232
G1 X496.500 Y226.500
G1 X496.500 Y219.500 Z7.000
G1 X497.232 Y218.768
G1 X496.500 Y219.500
G1 X480.500 Y219.500 Z7.000
G1 X479.768 Y218.768
G1 X480.500 Y219.500
G0 Z17.000
G0 X552.500 Z17.000
G0 X552.500 Z15.000
G1 X552.500 Y219.500 Z7.000
G1 X552.500 Y226.500 Z7.000
G1 X551.768 Y227.232
G1 X552.500 Y226.500
G1 X571.000 Y226.500 Z7.000
G3 X573.500 Y229.000 Z7.000 I-0.000 J2.500
G1 X573.500 Y247.500 Z7.000
G1 X572.768 Y248.232
G1 X573.500 Y247.500
G1 X580.500 Y247.500 Z7.000
G1 X581.232 Y248.232
G1 X580.500 Y247.500
G1 X580.500 Y229.000 Z7.000
G3 X583.000 Y226.500 Z7.000 I2.500 J0.000
G1 X601.500 Y226.500 Z7.000
G1 X602.232 Y227.232
G1 X601.500 Y226.500
G1 X601.500 Y219.500 Z7.000
G1 X602.232 Y218.768
G1 X601.500 Y219.500
G1 X583.000 Y219.500 Z7.000
G3 X580.500 Y217.000 Z7.000 I0.000 J-2.500
G1 X580.500 Y198.500 Z7.000
G1 X581.232 Y197.768
G1 X580.500 Y198.500
G1 X573.500 Y198.500 Z7.000
G1 X572.768 Y197.768
G1 X573.500 Y198.500
G1 X573.500 Y217.000 Z7.000
G3 X571.000 Y219.500 Z7.000 I-2.500 J-0.000
G1 X552.500 Y219.500 Z7.000
G1 X551.768 Y218.768
G1 X552.500 Y219.500
G0 Z17.000
G0 X573.500 Y142.500 Z17.000
G0 X573.500 Y142.500 Z15.000
G1 X573.500 Y142.500 Z7.000
G1 X580.500 Y142.500 Z7.000
G1 X581.232 Y143.232
G1 X580.500 Y142.500
G1 X580.500 Y126.500 Z7.000
G1 X581.232 Y125.768
G1 X580.500 Y126.500
G1 X573.500 Y126.500 Z7.000
G1 X572.768 Y125.768
G1 X573.500 Y126.500
G1 X573.500 Y142.500 Z7.000
G1 X572.768 Y143.232
G1 X573.500 Y142.500
G0 Z17.000
G0 X657.500 Y219.500 Z17.000
G0 X657.500 Y219.500 Z15.000
G1 X657.500 Y219.500 Z7.000
G1 X657.500 Y226.500 Z7.000
G1 X656.768 Y227.232
G1 X657.500 Y226.500
G1 X673.500 Y226.500 Z7.000
G1 X674.232 Y227.232
G1 X673.500 Y226.500
G1 X673.500 Y219.500 Z7.000
G1 X674.232 Y218.768
G1 X673.500 Y219.500
G1 X657.500 Y219.500 Z7.000
G1 X656.768 Y218.768
G1 X657.500 Y219.500
G0 Z17.000
G0 X580.500 Y303.500 Z17.000
G0 X580.500 Y303.500 Z15.000
G1 X580.500 Y303.500 Z7.000
G1 X573.500 Y303.500 Z7.000
G1 X572.768 Y302.768
G1 X573.500 Y303.500
G1 X573.500 Y319.500 Z7.000
G1 X572.768 Y320.232
G1 X573.500 Y319.500
G1 X580.500 Y319.500 Z7.000
G1 X581.232 Y320.232
G1 X580.500 Y319.500
G1 X580.500 Y303.500 Z7.000
G1 X581.232 Y302.768
G1 X580.500 Y303.500
G0 Z17.000
G0 Y375.500 Z17.000
G0 Y375.500 Z15.000
G1 X580.500 Y375.500 Z7.000
G1 X573.500 Y375.500 Z7.000
G1 X572.768 Y374.768
G1 X573.500 Y375.500
G1 X573.500 Y394.000 Z7.000
G3 X571.000 Y396.500 Z7.000 I-2.500 J-0.000
G1 X552.500 Y396.500 Z7.000
G1 X551.768 Y395.768
G1 X552.500 Y396.500
G1 X552.500 Y403.500 Z7.000
G1 X551.768 Y404.232
G1 X552.500 Y403.500
G1 X571.000 Y403.500 Z7.000
G3 X573.500 Y406.000 Z7.000 I-0.000 J2.500
G1 X573.500 Y424.500 Z7.000
G1 X572.768 Y425.232
G1 X573.500 Y424.500
G1 X580.500 Y424.500 Z7.000
G1 X581.232 Y425.232
G1 X580.500 Y424.500
G1 X580.500 Y406.000 Z7.000
G3 X583.000 Y403.500 Z7.000 I2.500 J0.000
G1 X601.500 Y403.500 Z7.000
G1 X602.232 Y404.232
G1 X601.500 Y403.500
G1 X601.500 Y396.500 Z7.000
G1 X602.232 Y395.768
G1 X601.500 Y396.500
G1 X583.000 Y396.500 Z7.000
G3 X580.500 Y394.000 Z7.000 I0.000 J-2.500
G1 X580.500 Y375.500 Z7.000
G1 X581.232 Y374.768
G1 X580.500 Y375.500
G0 Z17.000
G0 X657.500 Y396.500 Z17.000
G0 X657.500 Y396.500 Z15.000
G1 X657.500 Y396.500 Z7.000
G1 X657.500 Y403.500 Z7.000
G1 X656.768 Y404.232
G1 X657.500 Y403.500
G1 X673.500 Y403.500 Z7.000
G1 X674.232 Y404.232
G1 X673.500 Y403.500
G1 X673.500 Y396.500 Z7.000
G1 X674.232 Y395.768
G1 X673.500 Y396.500
G1 X657.500 Y396.500 Z7.000
G1 X656.768 Y395.768
G1 X657.500 Y396.500
G0 Z17.000
G0 X580.500 Y480.500 Z17.000
G0 X580.500 Y480.500 Z15.000
G1 X580.500 Y480.500 Z7.000
G1 X573.500 Y480.500 Z7.000
G1 X572.768 Y479.768
G1 X573.500 Y480.500
G1 X573.500 Y496.500 Z7.000
G1 X572.768 Y497.232
G1 X573.500 Y496.500
G1 X580.500 Y496.500 Z7.000
G1 X581.232 Y497.232
G1 X580.500 Y496.500
G1 X580.500 Y480.500 Z7.000
G1 X581.232 Y479.768
G1 X580.500 Y480.500
G0 Z17.000
G0 X496.500 Y403.500 Z17.000
G0 X496.500 Y403.500 Z15.000
G1 X496.500 Y403.500 Z7.000
G1 X496.500 Y396.500 Z7.000
G1 X497.232 Y395.768
G1 X496.500 Y396.500
G1 X480.500 Y396.500 Z7.000
G1 X479.768 Y395.768
G1 X480.500 Y396.500
G1 X480.500 Y403.500 Z7.000
G1 X479.768 Y404.232
G1 X480.500 Y403.500
G1 X496.500 Y403.500 Z7.000
G1 X497.232 Y404.232
G1 X496.500 Y403.500
G0 Z17.000
G0 X424.500 Y403.500 Z17.000
G0 X424.500 Y403.500 Z15.000
G1 X424.500 Y403.500 Z7.000
G1 X424.500 Y396.500 Z7.000
G1 X425.232 Y395.768
G1 X424.500 Y396.500
G1 X406.000 Y396.500 Z7.000
G3 X403.500 Y394.000 Z7.000 I0.000 J-2.500
G1 X403.500 Y375.500 Z7.000
G1 X404.232 Y374.768
G1 X403.500 Y375.500
G1 X396.500 Y375.500 Z7.000
G1 X395.768 Y374.768
G1 X396.500 Y375.500
G1 X396.500 Y394.000 Z7.000
G3 X394.000 Y396.500 Z7.000 I-2.500 J-0.000
G1 X375.500 Y396.500 Z7.000
G1 X374.768 Y395.768
G1 X375.500 Y396.500
G1 X375.500 Y403.500 Z7.000
G1 X374.768 Y404.232
G1 X375.500 Y403.500
G1 X394.000 Y403.500 Z7.000
G3 X396.500 Y406.000 Z7.000 I-0.000 J2.500
G1 X396.500 Y424.500 Z7.000
G1 X395.768 Y425.232
G1 X396.500 Y424.500
G1 X403.500 Y424.500 Z7.000
G1 X404.232 Y425.232
G1 X403.500 Y424.500
G1 X403.500 Y406.000 Z7.000
G3 X406.000 Y403.500 Z7.000 I2.500 J0.000
G1 X424.500 Y403.500 Z7.000
G1 X425.232 Y404.232
G1 X424.500 Y403.500
G0 Z17.000
G0 X403.500 Y480.500 Z17.000
G0 X403.500 Y480.500 Z15.000
G1 X403.500 Y480.500 Z7.000
G1 X396.500 Y480.500 Z7.000
G1 X395.768 Y479.768
G1 X396.500 Y480.500
G1 X396.500 Y496.500 Z7.000
G1 X395.768 Y497.232
G1 X396.500 Y496.500
G1 X403.500 Y496.500 Z7.000
G1 X404.232 Y497.232
G1 X403.500 Y496.500
G1 X403.500 Y480.500 Z7.000
G1 X404.232 Y479.768
G1 X403.500 Y480.500
G0 Z17.000
G0 X319.500 Y403.500 Z17.000
G0 X319.500 Y403.500 Z15.000
G1 X319.500 Y403.500 Z7.000
G1 X319.500 Y396.500 Z7.000
G1 X320.232 Y395.768
G1 X319.500 Y396.500
G1 X303.500 Y396.500 Z7.000
G1 X302.768 Y395.768
G1 X303.500 Y396.500
G1 X303.500 Y403.500 Z7.000
G1 X302.768 Y404.232
G1 X303.500 Y403.500
G1 X319.500 Y403.500 Z7.000
G1 X320.232 Y404.232
G1 X319.500 Y403.500
G0 Z17.000
G0 X396.500 Y319.500 Z17.000
G0 X396.500 Y319.500 Z15.000
G1 X396.500 Y319.500 Z7.000
G1 X403.500 Y319.500 Z7.000
G1 X404.232 Y320.232
G1 X403.500 Y319.500
G1 X403.500 Y303.500 Z7.000
G1 X404.232 Y302.768
G1 X403.500 Y303.500
G1 X396.500 Y303.500 Z7.000
G1 X395.768 Y302.768
G1 X396.500 Y303.500
G1 X396.500 Y319.500 Z7.000
G1 X395.768 Y320.232
G1 X396.500 Y319.500
G1 X396.500 Y319.500 Z2.000
G1 X403.500 Y319.500 Z2.000
G1 X404.232 Y320.232
G1 X403.500 Y319.500
G1 X403.500 Y303.500 Z2.000
G1 X404.232 Y302.768
G1 X403.500 Y303.500
G1 X396.500 Y303.500 Z2.000
G1 X395.768 Y302.768
G1 X396.500 Y303.500
G1 X396.500 Y319.500 Z2.000
G1 X395.768 Y320.232
G1 X396.500 Y319.500
G0 Z17.000
G0 X396.500 Y375.500 Z17.000
G0 X396.500 Y375.500 Z15.000
G1 X396.500 Y375.500 Z2.000
G1 X396.500 Y394.000 Z2.000
G3 X394.000 Y396.500 Z2.000 I-2.500 J-0.000
G1 X375.500 Y396.500 Z2.000
G1 X374.768 Y395.768
G1 X375.500 Y396.500
G1 X375.500 Y403.500 Z2.000
G1 X374.768 Y404.232
G1 X375.500 Y403.500
G1 X394.000 Y403.500 Z2.000
G3 X396.500 Y406.000 Z2.000 I-0.000 J2.500
G1 X396.500 Y424.500 Z2.000
G1 X395.768 Y425.232
G1 X396.500 Y424.500
G1 X403.500 Y424.500 Z2.000
G1 X404.232 Y425.232
G1 X403.500 Y424.500
G1 X403.500 Y406.000 Z2.000
G3 X406.000 Y403.500 Z2.000 I2.500 J0.000
G1 X424.500 Y403.500 Z2.000
G1 X425.232 Y404.232
G1 X424.500 Y403.500
G1 X424.500 Y396.500 Z2.000
G1 X425.232 Y395.768
G1 X424.500 Y396.500
G1 X406.000 Y396.500 Z2.000
G3 X403.500 Y394.000 Z2.000 I0.000 J-2.500
G1 X403.500 Y375.500 Z2.000
G1 X404.232 Y374.768
G1 X403.500 Y375.500
G1 X396.500 Y375.500 Z2.000
G1 X395.768 Y374.768
G1 X396.500 Y375.500
G0 Z17.000
G0 X319.500 Y396.500 Z17.000
G0 X319.500 Y396.500 Z15.000
G1 X319.500 Y396.500 Z2.000
G1 X303.500 Y396.500 Z2.000
G1 X302.768 Y395.768
G1 X303.500 Y396.500
G1 X303.500 Y403.500 Z2.000
G1 X302.768 Y404.232
G1 X303.500 Y403.500
G1 X319.500 Y403.500 Z2.000
G1 X320.232 Y404.232
G1 X319.500 Y403.500
G1 X319.500 Y396.500 Z2.000
G1 X320.232 Y395.768
G1 X319.500 Y396.500
G0 Z17.000
G0 X247.500 Z17.000
G0 X247.500 Z15.000
G1 X247.500 Y396.500 Z2.000
G1 X229.000 Y396.500 Z2.000
G3 X226.500 Y394.000 Z2.000 I0.000 J-2.500
G1 X226.500 Y375.500 Z2.000
G1 X227.232 Y374.768
G1 X226.500 Y375.500
G1 X219.500 Y375.500 Z2.000
G1 X218.768 Y374.768
G1 X219.500 Y375.500
G1 X219.500 Y394.000 Z2.000
G3 X217.000 Y396.500 Z2.000 I-2.500 J-0.000
G1 X198.500 Y396.500 Z2.000
G1 X197.768 Y395.768
G1 X198.500 Y396.500
G1 X198.500 Y403.500 Z2.000
G1 X197.768 Y404.232
G1 X198.500 Y403.500
G1 X217.000 Y403.500 Z2.000
G3 X219.500 Y406.000 Z2.000 I-0.000 J2.500
G1 X219.500 Y424.500 Z2.000
G1 X218.768 Y425.232
G1 X219.500 Y424.500
G1 X226.500 Y424.500 Z2.000
G1 X227.232 Y425.232
G1 X226.500 Y424.500
G1 X226.500 Y406.000 Z2.000
G3 X229.000 Y403.500 Z2.000 I2.500 J0.000
G1 X247.500 Y403.500 Z2.000
G1 X248.232 Y404.232
G1 X247.500 Y403.500
G1 X247.500 Y396.500 Z2.000
G1 X248.232 Y395.768
G1 X247.500 Y396.500
G0 Z17.000
G0 X226.500 Y319.500 Z17.000
G0 X226.500 Y319.500 Z15.000
G1 X226.500 Y319.500 Z2.000
G1 X226.500 Y303.500 Z2.000
G1 X227.232 Y302.768
G1 X226.500 Y303.500
G1 X219.500 Y303.500 Z2.000
G1 X218.768 Y302.768
G1 X219.500 Y303.500
G1 X219.500 Y319.500 Z2.000
G1 X218.768 Y320.232
G1 X219.500 Y319.500
G1 X226.500 Y319.500 Z2.000
G1 X227.232 Y320.232
G1 X226.500 Y319.500
G0 Z17.000
G0 Y247.500 Z17.000
G0 Y247.500 Z15.000
G1 X226.500 Y247.500 Z2.000
G1 X226.500 Y229.000 Z2.000
G3 X229.000 Y226.500 Z2.000 I2.500 J0.000
G1 X247.500 Y226.500 Z2.000
G1 X248.232 Y227.232
G1 X247.500 Y226.500
G1 X247.500 Y219.500 Z2.000
G1 X248.232 Y218.768
G1 X247.500 Y219.500
G1 X229.000 Y219.500 Z2.000
G3 X226.500 Y217.000 Z2.000 I0.000 J-2.500
G1 X226.500 Y198.500 Z2.000
G1 X227.232 Y197.768
G1 X226.500 Y198.500
G1 X219.500 Y198.500 Z2.000
G1 X218.768 Y197.768
G1 X219.500 Y198.500
G1 X219.500 Y217.000 Z2.000
G3 X217.000 Y219.500 Z2.000 I-2.500 J-0.000
G1 X198.500 Y219.500 Z2.000
G1 X197.768 Y218.768
G1 X198.500 Y219.500
G1 X198.500 Y226.500 Z2.000
G1 X197.768 Y227.232
G1 X198.500 Y226.500
G1 X217.000 Y226.500 Z2.000
G3 X219.500 Y229.000 Z2.000 I-0.000 J2.500
G1 X219.500 Y247.500 Z2.000
G1 X218.768 Y248.232
G1 X219.500 Y247.500
G1 X226.500 Y247.500 Z2.000
G1 X227.232 Y248.232
G1 X226.500 Y247.500
G0 Z17.000
G0 X303.500 Y226.500 Z17.000
G0 X303.500 Y226.500 Z15.000
G1 X303.500 Y226.500 Z2.000
G1 X319.500 Y226.500 Z2.000
G1 X320.232 Y227.232
G1 X319.500 Y226.500
G1 X319.500 Y219.500 Z2.000
G1 X320.232 Y218.768
G1 X319.500 Y219.500
G1 X303.500 Y219.500 Z2.000
G1 X302.768 Y218.768
G1 X303.500 Y219.500
G1 X303.500 Y226.500 Z2.000
G1 X302.768 Y227.232
G1 X303.500 Y226.500
G0 Z17.000
G0 X375.500 Z17.000
G0 X375.500 Z15.000
G1 X375.500 Y226.500 Z2.000
G1 X394.000 Y226.500 Z2.000
G3 X396.500 Y229.000 Z2.000 I-0.000 J2.500
G1 X396.500 Y247.500 Z2.000
G1 X395.768 Y248.232
G1 X396.500 Y247.500
G1 X403.500 Y247.500 Z2.000
G1 X404.232 Y248.232
G1 X403.500 Y247.500
G1 X403.500 Y229.000 Z2.000
G3 X406.000 Y226.500 Z2.000 I2.500 J0.000
G1 X424.500 Y226.500 Z2.000
G1 X425.232 Y227.232
G1 X424.500 Y226.500
G1 X424.500 Y219.500 Z2.000
G1 X425.232 Y218.768
G1 X424.500 Y219.500
G1 X406.000 Y219.500 Z2.000
G3 X403.500 Y217.000 Z2.000 I0.000 J-2.500
G1 X403.500 Y198.500 Z2.000
G1 X404.232 Y197.768
G1 X403.500 Y198.500
G1 X396.500 Y198.500 Z2.000
G1 X395.768 Y197.768
G1 X396.500 Y198.500
G1 X396.500 Y217.000 Z2.000
G3 X394.000 Y219.500 Z2.000 I-2.500 J-0.000
G1 X375.500 Y219.500 Z2.000
G1 X374.768 Y218.768
G1 X375.500 Y219.500
G1 X375.500 Y226.500 Z2.000
G1 X374.768 Y227.232
G1 X375.500 Y226.500
G0 Z17.000
G0 X396.500 Y142.500 Z17.000
G0 X396.500 Y142.500 Z15.000
G1 X396.500 Y142.500 Z2.000
G1 X403.500 Y142.500 Z2.000
G1 X404.232 Y143.232
G1 X403.500 Y142.500
G1 X403.500 Y126.500 Z2.000
G1 X404.232 Y125.768
G1 X403.500 Y126.500
G1 X396.500 Y126.500 Z2.000
G1 X395.768 Y125.768
G1 X396.500 Y126.500
G1 X396.500 Y142.500 Z2.000
G1 X395.768 Y143.232
G1 X396.500 Y142.500
G0 Z17.000
G0 Y70.500 Z17.000
G0 Y70.500 Z15.000
G1 X396.500 Y70.500 Z2.000
G1 X403.500 Y70.500 Z2.000
G1 X404.232 Y71.232
G1 X403.500 Y70.500
G1 X403.500 Y54.500 Z2.000
G1 X404.232 Y53.768
G1 X403.500 Y54.500
G1 X396.500 Y54.500 Z2.000
G1 X395.768 Y53.768
G1 X396.500 Y54.500
G1 X396.500 Y70.500 Z2.000
G1 X395.768 Y71.232
G1 X396.500 Y70.500
G0 Z17.000
G0 X391.500 Y49.500 Z17.000
G0 X391.500 Y49.500 Z15.000
G1 X391.500 Y49.500 Z2.000
G1 X391.500 Y42.500 Z2.000
G1 X392.232 Y41.768
G1 X391.500 Y42.500
G1 X375.500 Y42.500 Z2.000
G1 X374.768 Y41.768
G1 X375.500 Y42.500
G1 X375.500 Y49.500 Z2.000
G1 X374.768 Y50.232
G1 X375.500 Y49.500
G1 X391.500 Y49.500 Z2.000
G1 X392.232 Y50.232
G1 X391.500 Y49.500
G0 Z17.000
G0 X408.500 Z17.000
G0 X408.500 Z15.000
G1 X408.500 Y49.500 Z2.000
G1 X424.500 Y49.500 Z2.000
G1 X425.232 Y50.232
G1 X424.500 Y49.500
G1 X424.500 Y42.500 Z2.000
G1 X425.232 Y41.768
G1 X424.500 Y42.500
G1 X408.500 Y42.500 Z2.000
G1 X407.768 Y41.768
G1 X408.500 Y42.500
G1 X408.500 Y49.500 Z2.000
G1 X407.768 Y50.232
G1 X408.500 Y49.500
G0 Z17.000
G0 X480.500 Z17.000
G0 X480.500 Z15.000
G1 X480.500 Y49.500 Z2.000
G1 X496.500 Y49.500 Z2.000
G1 X497.232 Y50.232
G1 X496.500 Y49.500
G1 X496.500 Y42.500 Z2.000
G1 X497.232 Y41.768
G1 X496.500 Y42.500
G1 X480.500 Y42.500 Z2.000
G1 X479.768 Y41.768
G1 X480.500 Y42.500
G1 X480.500 Y49.500 Z2.000
G1 X479.768 Y50.232
G1 X480.500 Y49.500
G0 Z17.000
G0 X552.500 Z17.000
G0 X552.500 Z15.000
G1 X552.500 Y49.500 Z2.000
G1 X568.500 Y49.500 Z2.000
G1 X569.232 Y50.232
G1 X568.500 Y49.500
G1 X568.500 Y42.500 Z2.000
G1 X569.232 Y41.768
G1 X568.500 Y42.500
G1 X552.500 Y42.500 Z2.000
G1 X551.768 Y41.768
G1 X552.500 Y42.500
G1 X552.500 Y49.500 Z2.000
G1 X551.768 Y50.232
G1 X552.500 Y49.500
G0 Z17.000
G0 X573.500 Y54.500 Z17.000
G0 X573.500 Y54.500 Z15.000
G1 X573.500 Y54.500 Z2.000
G1 X573.500 Y70.500 Z2.000
G1 X572.768 Y71.232
G1 X573.500 Y70.500
G1 X580.500 Y70.500 Z2.000
G1 X581.232 Y71.232
G1 X580.500 Y70.500
G1 X580.500 Y54.500 Z2.000
G1 X581.232 Y53.768
G1 X580.500 Y54.500
G1 X573.500 Y54.500 Z2.000
G1 X572.768 Y53.768
G1 X573.500 Y54.500
G0 Z17.000
G0 X585.500 Y49.500 Z17.000
G0 X585.500 Y49.500 Z15.000
G1 X585.500 Y49.500 Z2.000
G1 X601.500 Y49.500 Z2.000
G1 X602.232 Y50.232
G1 X601.500 Y49.500
G1 X601.500 Y42.500 Z2.000
G1 X602.232 Y41.768
G1 X601.500 Y42.500
G1 X585.500 Y42.500 Z2.000
G1 X584.768 Y41.768
G1 X585.500 Y42.500
G1 X585.500 Y49.500 Z2.000
G1 X584.768 Y50.232
G1 X585.500 Y49.500
G0 Z17.000
G0 X657.500 Z17.000
G0 X657.500 Z15.000
G1 X657.500 Y49.500 Z2.000
G1 X673.500 Y49.500 Z2.000
G1 X674.232 Y50.232
G1 X673.500 Y49.500
G1 X673.500 Y42.500 Z2.000
G1 X674.232 Y41.768
G1 X673.500 Y42.500
G1 X657.500 Y42.500 Z2.000
G1 X656.768 Y41.768
G1 X657.500 Y42.500
G1 X657.500 Y49.500 Z2.000
G1 X656.768 Y50.232
G1 X657.500 Y49.500
G0 Z17.000
G0 X729.500 Z17.000
G0 X729.500 Z15.000
G1 X729.500 Y49.500 Z2.000
G1 X745.500 Y49.500 Z2.000
G1 X746.232 Y50.232
G1 X745.500 Y49.500
G1 X745.500 Y42.500 Z2.000
G1 X746.232 Y41.768
G1 X745.500 Y42.500
G1 X729.500 Y42.500 Z2.000
G1 X728.768 Y41.768
G1 X729.500 Y42.500
G1 X729.500 Y49.500 Z2.000
G1 X728.768 Y50.232
G1 X729.500 Y49.500
G0 Z17.000
G0 X750.500 Y54.500 Z17.000
G0 X750.500 Y54.500 Z15.000
G1 X750.500 Y54.500 Z2.000
G1 X750.500 Y70.500 Z2.000
G1 X749.768 Y71.232
G1 X750.500 Y70.500
G1 X757.500 Y70.500 Z2.000
G1 X758.232 Y71.232
G1 X757.500 Y70.500
G1 X757.500 Y54.500 Z2.000
G1 X758.232 Y53.768
G1 X757.500 Y54.500
G1 X750.500 Y54.500 Z2.000
G1 X749.768 Y53.768
G1 X750.500 Y54.500
G0 Z17.000
G0 Y126.500 Z17.000
G0 Y126.500 Z15.000
G1 X750.500 Y126.500 Z2.000
G1 X750.500 Y142.500 Z2.000
G1 X749.768 Y143.232
G1 X750.500 Y142.500
G1 X757.500 Y142.500 Z2.000
G1 X758.232 Y143.232
G1 X757.500 Y142.500
G1 X757.500 Y126.500 Z2.000
G1 X758.232 Y125.768
G1 X757.500 Y126.500
G1 X750.500 Y126.500 Z2.000
G1 X749.768 Y125.768
G1 X750.500 Y126.500
G0 Z17.000
G0 Y198.500 Z17.000
G0 Y198.500 Z15.000
G1 X750.500 Y198.500 Z2.000
G1 X750.500 Y214.500 Z2.000
G1 X749.768 Y215.232
G1 X750.500 Y214.500
G1 X757.500 Y214.500 Z2.000
G1 X758.232 Y215.232
G1 X757.500 Y214.500
G1 X757.500 Y198.500 Z2.000
G1 X758.232 Y197.768
G1 X757.500 Y198.500
G1 X750.500 Y198.500 Z2.000
G1 X749.768 Y197.768
G1 X750.500 Y198.500
G0 Z17.000
G0 X745.500 Y219.500 Z17.000
G0 X745.500 Y219.500 Z15.000
G1 X745.500 Y219.500 Z2.000
G1 X729.500 Y219.500 Z2.000
G1 X728.768 Y218.768
G1 X729.500 Y219.500
G1 X729.500 Y226.500 Z2.000
G1 X728.768 Y227.232
G1 X729.500 Y226.500
G1 X745.500 Y226.500 Z2.000
G1 X746.232 Y227.232
G1 X745.500 Y226.500
G1 X745.500 Y219.500 Z2.000
G1 X746.232 Y218.768
G1 X745.500 Y219.500
G0 Z17.000
G0 X750.500 Y231.500 Z17.000
G0 X750.500 Y231.500 Z15.000
G1 X750.500 Y231.500 Z2.000
G1 X750.500 Y247.500 Z2.000
G1 X749.768 Y248.232
G1 X750.500 Y247.500
G1 X757.500 Y247.500 Z2.000
G1 X758.232 Y248.232
G1 X757.500 Y247.500
G1 X757.500 Y231.500 Z2.000
G1 X758.232 Y230.768
G1 X757.500 Y231.500
G1 X750.500 Y231.500 Z2.000
G1 X749.768 Y230.768
G1 X750.500 Y231.500
G0 Z17.000
G0 Y303.500 Z17.000
G0 Y303.500 Z15.000
G1 X750.500 Y303.500 Z2.000
G1 X750.500 Y319.500 Z2.000
G1 X749.768 Y320.232
G1 X750.500 Y319.500
G1 X757.500 Y319.500 Z2.000
G1 X758.232 Y320.232
G1 X757.500 Y319.500
G1 X757.500 Y303.500 Z2.000
G1 X758.232 Y302.768
G1 X757.500 Y303.500
G1 X750.500 Y303.500 Z2.000
G1 X749.768 Y302.768
G1 X750.500 Y303.500
G0 Z17.000
G0 Y375.500 Z17.000
G0 Y375.500 Z15.000
G1 X750.500 Y375.500 Z2.000
G1 X750.500 Y391.500 Z2.000
G1 X749.768 Y392.232
G1 X750.500 Y391.500
G1 X757.500 Y391.500 Z2.000
G1 X758.232 Y392.232
G1 X757.500 Y391.500
G1 X757.500 Y375.500 Z2.000
G1 X758.232 Y374.768
G1 X757.500 Y375.500
G1 X750.500 Y375.500 Z2.000
G1 X749.768 Y374.768
G1 X750.500 Y375.500
G0 Z17.000
G0 X745.500 Y396.500 Z17.000
G0 X745.500 Y396.500 Z15.000
G1 X745.500 Y396.500 Z2.000
G1 X729.500 Y396.500 Z2.000
G1 X728.768 Y395.768
G1 X729.500 Y396.500
G1 X729.500 Y403.500 Z2.000
G1 X728.768 Y404.232
G1 X729.500 Y403.500
G1 X745.500 Y403.500 Z2.000
G1 X746.232 Y404.232
G1 X745.500 Y403.500
G1 X745.500 Y396.500 Z2.000
G1 X746.232 Y395.768
G1 X745.500 Y396.500
G0 Z17.000
G0 X750.500 Y408.500 Z17.000
G0 X750.500 Y408.500 Z15.000
G1 X750.500 Y408.500 Z2.000
G1 X750.500 Y424.500 Z2.000
G1 X749.768 Y425.232
G1 X750.500 Y424.500
G1 X757.500 Y424.500 Z2.000
G1 X758.232 Y425.232
G1 X757.500 Y424.500
G1 X757.500 Y408.500 Z2.000
G1 X758.232 Y407.768
G1 X757.500 Y408.500
G1 X750.500 Y408.500 Z2.000
G1 X749.768 Y407.768
G1 X750.500 Y408.500
G0 Z17.000
G0 Y480.500 Z17.000
G0 Y480.500 Z15.000
G1 X750.500 Y480.500 Z2.000
G1 X750.500 Y496.500 Z2.000
G1 X749.768 Y497.232
G1 X750.500 Y496.500
G1 X757.500 Y496.500 Z2.000
G1 X758.232 Y497.232
G1 X757.500 Y496.500
G1 X757.500 Y480.500 Z2.000
G1 X758.232 Y479.768
G1 X757.500 Y480.500
G1 X750.500 Y480.500 Z2.000
G1 X749.768 Y479.768
G1 X750.500 Y480.500
G0 Z17.000
G0 Y552.500 Z17.000
G0 Y552.500 Z15.000
G1 X750.500 Y552.500 Z2.000
G1 X750.500 Y568.500 Z2.000
G1 X749.768 Y569.232
G1 X750.500 Y568.500
G1 X757.500 Y568.500 Z2.000
G1 X758.232 Y569.232
G1 X757.500 Y568.500
G1 X757.500 Y552.500 Z2.000
G1 X758.232 Y551.768
G1 X757.500 Y552.500
G1 X750.500 Y552.500 Z2.000
G1 X749.768 Y551.768
G1 X750.500 Y552.500
G0 Z17.000
G0 X745.500 Y573.500 Z17.000
G0 X745.500 Y573.500 Z15.000
G1 X745.500 Y573.500 Z2.000
G1 X729.500 Y573.500 Z2.000
G1 X728.768 Y572.768
G1 X729.500 Y573.500
G1 X729.500 Y580.500 Z2.000
G1 X728.768 Y581.232
G1 X729.500 Y580.500
G1 X745.500 Y580.500 Z2.000
G1 X746.232 Y581.232
G1 X745.500 Y580.500
G1 X745.500 Y573.500 Z2.000
G1 X746.232 Y572.768
G1 X745.500 Y573.500
G0 Z17.000
G0 X750.500 Y585.500 Z17.000
G0 X750.500 Y585.500 Z15.000
G1 X750.500 Y585.500 Z2.000
G1 X750.500 Y601.500 Z2.000
G1 X749.768 Y602.232
G1 X750.500 Y601.500
G1 X757.500 Y601.500 Z2.000
G1 X758.232 Y602.232
G1 X757.500 Y601.500
G1 X757.500 Y585.500 Z2.000
G1 X758.232 Y584.768
G1 X757.500 Y585.500
G1 X750.500 Y585.500 Z2.000
G1 X749.768 Y584.768
G1 X750.500 Y585.500
G0 Z17.000
G0 Y657.500 Z17.000
G0 Y657.500 Z15.000
G1 X750.500 Y657.500 Z2.000
G1 X750.500 Y673.500 Z2.000
G1 X749.768 Y674.232
G1 X750.500 Y673.500
G1 X757.500 Y673.500 Z2.000
G1 X758.232 Y674.232
G1 X757.500 Y673.500
G1 X757.500 Y657.500 Z2.000
G1 X758.232 Y656.768
G1 X757.500 Y657.500
G1 X750.500 Y657.500 Z2.000
G1 X749.768 Y656.768
G1 X750.500 Y657.500
G0 Z17.000
G0 Y729.500 Z17.000
G0 Y729.500 Z15.000
G1 X750.500 Y729.500 Z2.000
G1 X750.500 Y745.500 Z2.000
G1 X749.768 Y746.232
G1 X750.500 Y745.500
G1 X757.500 Y745.500 Z2.000
G1 X758.232 Y746.232
G1 X757.500 Y745.500
G1 X757.500 Y729.500 Z2.000
G1 X758.232 Y728.768
G1 X757.500 Y729.500
G1 X750.500 Y729.500 Z2.000
G1 X749.768 Y728.768
G1 X750.500 Y729.500
G0 Z17.000
G0 X745.500 Y750.500 Z17.000
G0 X745.500 Y750.500 Z15.000
G1 X745.500 Y750.500 Z2.000
G1 X729.500 Y750.500 Z2.000
G1 X728.768 Y749.768
G1 X729.500 Y750.500
G1 X729.500 Y757.500 Z2.000
G1 X728.768 Y758.232
G1 X729.500 Y757.500
G1 X745.500 Y757.500 Z2.000
G1 X746.232 Y758.232
G1 X745.500 Y757.500
G1 X745.500 Y750.500 Z2.000
G1 X746.232 Y749.768
G1 X745.500 Y750.500
G0 Z17.000
G0 X673.500 Z17.000
G0 X673.500 Z15.000
G1 X673.500 Y750.500 Z2.000
G1 X657.500 Y750.500 Z2.000
G1 X656.768 Y749.768
G1 X657.500 Y750.500
G1 X657.500 Y757.500 Z2.000
G1 X656.768 Y758.232
G1 X657.500 Y757.500
G1 X673.500 Y757.500 Z2.000
G1 X674.232 Y758.232
G1 X673.500 Y757.500
G1 X673.500 Y750.500 Z2.000
G1 X674.232 Y749.768
G1 X673.500 Y750.500
G0 Z17.000
G0 X601.500 Z17.000
G0 X601.500 Z15.000
G1 X601.500 Y750.500 Z2.000
G1 X585.500 Y750.500 Z2.000
G1 X584.768 Y749.768
G1 X585.500 Y750.500
G1 X585.500 Y757.500 Z2.000
G1 X584.768 Y758.232
G1 X585.500 Y757.500
G1 X601.500 Y757.500 Z2.000
G1 X602.232 Y758.232
G1 X601.500 Y757.500
G1 X601.500 Y750.500 Z2.000
G1 X602.232 Y749.768
G1 X601.500 Y750.500
G0 Z17.000
G0 X580.500 Y745.500 Z17.000
G0 X580.500 Y745.500 Z15.000
G1 X580.500 Y745.500 Z2.000
G1 X580.500 Y729.500 Z2.000
G1 X581.232 Y728.768
G1 X580.500 Y729.500
G1 X573.500 Y729.500 Z2.000
G1 X572.768 Y728.768
G1 X573.500 Y729.500
G1 X573.500 Y745.500 Z2.000
G1 X572.768 Y746.232
G1 X573.500 Y745.500
G1 X580.500 Y745.500 Z2.000
G1 X581.232 Y746.232
G1 X580.500 Y745.500
G0 Z17.000
G0 X568.500 Y750.500 Z17.000
G0 X568.500 Y750.500 Z15.000
G1 X568.500 Y750.500 Z2.000
G1 X552.500 Y750.500 Z2.000
G1 X551.768 Y749.768
G1 X552.500 Y750.500
G1 X552.500 Y757.500 Z2.000
G1 X551.768 Y758.232
G1 X552.500 Y757.500
G1 X568.500 Y757.500 Z2.000
G1 X569.232 Y758.232
G1 X568.500 Y757.500
G1 X568.500 Y750.500 Z2.000
G1 X569.232 Y749.768
G1 X568.500 Y750.500
G0 Z17.000
G0 X496.500 Z17.000
G0 X496.500 Z15.000
G1 X496.500 Y750.500 Z2.000
G1 X480.500 Y750.500 Z2.000
G1 X479.768 Y749.768
G1 X480.500 Y750.500
G1 X480.500 Y757.500 Z2.000
G1 X479.768 Y758.232
G1 X480.500 Y757.500
G1 X496.500 Y757.500 Z2.000
G1 X497.232 Y758.232
G1 X496.500 Y757.500
G1 X496.500 Y750.500 Z2.000
G1 X497.232 Y749.768
G1 X496.500 Y750.500
G0 Z17.000
G0 X424.500 Z17.000
G0 X424.500 Z15.000
G1 X424.500 Y750.500 Z2.000
G1 X408.500 Y750.500 Z2.000
G1 X407.768 Y749.768
G1 X408.500 Y750.500
G1 X408.500 Y757.500 Z2.000
G1 X407.768 Y758.232
G1 X408.500 Y757.500
G1 X424.500 Y757.500 Z2.000
G1 X425.232 Y758.232
G1 X424.500 Y757.500
G1 X424.500 Y750.500 Z2.000
G1 X425.232 Y749.768
G1 X424.500 Y750.500
G0 Z17.000
G0 X403.500 Y745.500 Z17.000
G0 X403.500 Y745.500 Z15.000
G1 X403.500 Y745.500 Z2.000
G1 X403.500 Y729.500 Z2.000
G1 X404.232 Y728.768
G1 X403.500 Y729.500
G1 X396.500 Y729.500 Z2.000
G1 X395.768 Y728.768
G1 X396.500 Y729.500
G1 X396.500 Y745.500 Z2.000
G1 X395.768 Y746.232
G1 X396.500 Y745.500
G1 X403.500 Y745.500 Z2.000
G1 X404.232 Y746.232
G1 X403.500 Y745.500
G0 Z17.000
G0 X391.500 Y750.500 Z17.000
G0 X391.500 Y750.500 Z15.000
G1 X391.500 Y750.500 Z2.000
G1 X375.500 Y750.500 Z2.000
G1 X374.768 Y749.768
G1 X375.500 Y750.500
G1 X375.500 Y757.500 Z2.000
G1 X374.768 Y758.232
G1 X375.500 Y757.500
G1 X391.500 Y757.500 Z2.000
G1 X392.232 Y758.232
G1 X391.500 Y757.500
G1 X391.500 Y750.500 Z2.000
G1 X392.232 Y749.768
G1 X391.500 Y750.500
G0 Z17.000
G0 X319.500 Z17.000
G0 X319.500 Z15.000
G1 X319.500 Y750.500 Z2.000
G1 X303.500 Y750.500 Z2.000
G1 X302.768 Y749.768
G1 X303.500 Y750.500
G1 X303.500 Y757.500 Z2.000
G1 X302.768 Y758.232
G1 X303.500 Y757.500
G1 X319.500 Y757.500 Z2.000
G1 X320.232 Y758.232
G1 X319.500 Y757.500
G1 X319.500 Y750.500 Z2.000
G1 X320.232 Y749.768
G1 X319.500 Y750.500
G0 Z17.000
G0 X247.500 Z17.000
G0 X247.500 Z15.000
G1 X247.500 Y750.500 Z2.000
G1 X231.500 Y750.500 Z2.000
G1 X230.768 Y749.768
G1 X231.500 Y750.500
G1 X231.500 Y757.500 Z2.000
G1 X230.768 Y758.232
G1 X231.500 Y757.500
G1 X247.500 Y757.500 Z2.000
G1 X248.232 Y758.232
G1 X247.500 Y757.500
G1 X247.500 Y750.500 Z2.000
G1 X248.232 Y749.768
G1 X247.500 Y750.500
G0 Z17.000
G0 X226.500 Y745.500 Z17.000
G0 X226.500 Y745.500 Z15.000
G1 X226.500 Y745.500 Z2.000
G1 X226.500 Y729.500 Z2.000
G1 X227.232 Y728.768
G1 X226.500 Y729.500
G1 X219.500 Y729.500 Z2.000
G1 X218.768 Y728.768
G1 X219.500 Y729.500
G1 X219.500 Y745.500 Z2.000
G1 X218.768 Y746.232
G1 X219.500 Y745.500
G1 X226.500 Y745.500 Z2.000
G1 X227.232 Y746.232
G1 X226.500 Y745.500
G0 Z17.000
G0 X214.500 Y750.500 Z17.000
G0 X214.500 Y750.500 Z15.000
G1 X214.500 Y750.500 Z2.000
G1 X198.500 Y750.500 Z2.000
G1 X197.768 Y749.768
G1 X198.500 Y750.500
G1 X198.500 Y757.500 Z2.000
G1 X197.768 Y758.232
G1 X198.500 Y757.500
G1 X214.500 Y757.500 Z2.000
G1 X215.232 Y758.232
G1 X214.500 Y757.500
G1 X214.500 Y750.500 Z2.000
G1 X215.232 Y749.768
G1 X214.500 Y750.500
G0 Z17.000
G0 X142.500 Z17.000
G0 X142.500 Z15.000
G1 X142.500 Y750.500 Z2.000
G1 X126.500 Y750.500 Z2.000
G1 X125.768 Y749.768
G1 X126.500 Y750.500
G1 X126.500 Y757.500 Z2.000
G1 X125.768 Y758.232
G1 X126.500 Y757.500
G1 X142.500 Y757.500 Z2.000
G1 X143.232 Y758.232
G1 X142.500 Y757.500
G1 X142.500 Y750.500 Z2.000
G1 X143.232 Y749.768
G1 X142.500 Y750.500
G0 Z17.000
G0 X70.500 Z17.000
G0 X70.500 Z15.000
G1 X70.500 Y750.500 Z2.000
G1 X54.500 Y750.500 Z2.000
G1 X53.768 Y749.768
G1 X54.500 Y750.500
G1 X54.500 Y757.500 Z2.000
G1 X53.768 Y758.232
G1 X54.500 Y757.500
G1 X70.500 Y757.500 Z2.000
G1 X71.232 Y758.232
G1 X70.500 Y757.500
G1 X70.500 Y750.500 Z2.000
G1 X71.232 Y749.768
G1 X70.500 Y750.500
G0 Z17.000
G0 X49.500 Y745.500 Z17.000
G0 X49.500 Y745.500 Z15.000
G1 X49.500 Y745.500 Z2.000
G1 X49.500 Y729.500 Z2.000
G1 X50.232 Y728.768
G1 X49.500 Y729.500
G1 X42.500 Y729.500 Z2.000
G1 X41.768 Y728.768
G1 X42.500 Y729.500
G1 X42.500 Y745.500 Z2.000
G1 X41.768 Y746.232
G1 X42.500 Y745.500
G1 X49.500 Y745.500 Z2.000
G1 X50.232 Y746.232
G1 X49.500 Y745.500
G0 Z17.000
G0 X49.500 Y673.500 Z17.000
G0 X49.500 Y673.500 Z15.000
G1 X49.500 Y673.500 Z2.000
G1 X49.500 Y657.500 Z2.000
G1 X50.232 Y656.768
G1 X49.500 Y657.500
G1 X42.500 Y657.500 Z2.000
G1 X41.768 Y656.768
G1 X42.500 Y657.500
G1 X42.500 Y673.500 Z2.000
G1 X41.768 Y674.232
G1 X42.500 Y673.500
G1 X49.500 Y673.500 Z2.000
G1 X50.232 Y674.232
G1 X49.500 Y673.500
G0 Z17.000
G0 X49.500 Y601.500 Z17.000
G0 X49.500 Y601.500 Z15.000
G1 X49.500 Y601.500 Z2.000
G1 X49.500 Y585.500 Z2.000
G1 X50.232 Y584.768
G1 X49.500 Y585.500
G1 X42.500 Y585.500 Z2.000
G1 X41.768 Y584.768
G1 X42.500 Y585.500
G1 X42.500 Y601.500 Z2.000
G1 X41.768 Y602.232
G1 X42.500 Y601.500
G1 X49.500 Y601.500 Z2.000
G1 X50.232 Y602.232
G1 X49.500 Y601.500
G0 Z17.000
G0 X54.500 Y580.500 Z17.000
G0 X54.500 Y580.500 Z15.000
G1 X54.500 Y580.500 Z2.000
G1 X70.500 Y580.500 Z2.000
G1 X71.232 Y581.232
G1 X70.500 Y580.500
G1 X70.500 Y573.500 Z2.000
G1 X71.232 Y572.768
G1 X70.500 Y573.500
G1 X54.500 Y573.500 Z2.000
G1 X53.768 Y572.768
G1 X54.500 Y573.500
G1 X54.500 Y580.500 Z2.000
G1 X53.768 Y581.232
G1 X54.500 Y580.500
G0 Z17.000
G0 X49.500 Y568.500 Z17.000
G0 X49.500 Y568.500 Z15.000
G1 X49.500 Y568.500 Z2.000
G1 X49.500 Y552.500 Z2.000
G1 X50.232 Y551.768
G1 X49.500 Y552.500
G1 X42.500 Y552.500 Z2.000
G1 X41.768 Y551.768
G1 X42.500 Y552.500
G1 X42.500 Y568.500 Z2.000
G1 X41.768 Y569.232
G1 X42.500 Y568.500
G1 X49.500 Y568.500 Z2.000
G1 X50.232 Y569.232
G1 X49.500 Y568.500
G0 Z17.000
G0 X49.500 Y496.500 Z17.000
G0 X49.500 Y496.500 Z15.000
G1 X49.500 Y496.500 Z2.000
G1 X49.500 Y480.500 Z2.000
G1 X50.232 Y479.768
G1 X49.500 Y480.500
G1 X42.500 Y480.500 Z2.000
G1 X41.768 Y479.768
G1 X42.500 Y480.500
G1 X42.500 Y496.500 Z2.000
G1 X41.768 Y497.232
G1 X42.500 Y496.500
G1 X49.500 Y496.500 Z2.000
G1 X50.232 Y497.232
G1 X49.500 Y496.500
G0 Z17.000
G0 X49.500 Y424.500 Z17.000
G0 X49.500 Y424.500 Z15.000
G1 X49.500 Y424.500 Z2.000
G1 X49.500 Y408.500 Z2.000
G1 X50.232 Y407.768
G1 X49.500 Y408.500
G1 X42.500 Y408.500 Z2.000
G1 X41.768 Y407.768
G1 X42.500 Y408.500
G1 X42.500 Y424.500 Z2.000
G1 X41.768 Y425.232
G1 X42.500 Y424.500
G1 X49.500 Y424.500 Z2.000
G1 X50.232 Y425.232
G1 X49.500 Y424.500
G0 Z17.000
G0 X54.500 Y403.500 Z17.000
G0 X54.500 Y403.500 Z15.000
G1 X54.500 Y403.500 Z2.000
G1 X70.500 Y403.500 Z2.000
G1 X71.232 Y404.232
G1 X70.500 Y403.500
G1 X70.500 Y396.500 Z2.000
G1 X71.232 Y395.768
G1 X70.500 Y396.500
G1 X54.500 Y396.500 Z2.000
G1 X53.768 Y395.768
G1 X54.500 Y396.500
G1 X54.500 Y403.500 Z2.000
G1 X53.768 Y404.232
G1 X54.500 Y403.500
G0 Z17.000
G0 X49.500 Y391.500 Z17.000
G0 X49.500 Y391.500 Z15.000
G1 X49.500 Y391.500 Z2.000
G1 X49.500 Y375.500 Z2.000
G1 X50.232 Y374.768
G1 X49.500 Y375.500
G1 X42.500 Y375.500 Z2.000
G1 X41.768 Y374.768
G1 X42.500 Y375.500
G1 X42.500 Y391.500 Z2.000
G1 X41.768 Y392.232
G1 X42.500 Y391.500
G1 X49.500 Y391.500 Z2.000
G1 X50.232 Y392.232
G1 X49.500 Y391.500
G0 Z17.000
G0 X49.500 Y319.500 Z17.000
G0 X49.500 Y319.500 Z15.000
G1 X49.500 Y319.500 Z2.000
G1 X49.500 Y303.500 Z2.000
G1 X50.232 Y302.768
G1 X49.500 Y303.500
G1 X42.500 Y303.500 Z2.000
G1 X41.768 Y302.768
G1 X42.500 Y303.500
G1 X42.500 Y319.500 Z2.000
G1 X41.768 Y320.232
G1 X42.500 Y319.500
G1 X49.500 Y319.500 Z2.000
G1 X50.232 Y320.232
G1 X49.500 Y319.500
G0 Z17.000
G0 X49.500 Y247.500 Z17.000
G0 X49.500 Y247.500 Z15.000
G1 X49.500 Y247.500 Z2.000
G1 X49.500 Y231.500 Z2.000
G1 X50.232 Y230.768
G1 X49.500 Y231.500
G1 X42.500 Y231.500 Z2.000
G1 X41.768 Y230.768
G1 X42.500 Y231.500
G1 X42.500 Y247.500 Z2.000
G1 X41.768 Y248.232
G1 X42.500 Y247.500
G1 X49.500 Y247.500 Z2.000
G1 X50.232 Y248.232
G1 X49.500 Y247.500
G0 Z17.000
G0 X54.500 Y226.500 Z17.000
G0 X54.500 Y226.500 Z15.000
G1 X54.500 Y226.500 Z2.000
G1 X70.500 Y226.500 Z2.000
G1 X71.232 Y227.232
G1 X70.500 Y226.500
G1 X70.500 Y219.500 Z2.000
G1 X71.232 Y218.768
G1 X70.500 Y219.500
G1 X54.500 Y219.500 Z2.000
G1 X53.768 Y218.768
G1 X54.500 Y219.500
G1 X54.500 Y226.500 Z2.000
G1 X53.768 Y227.232
G1 X54.500 Y226.500
G0 Z17.000
G0 X49.500 Y214.500 Z17.000
G0 X49.500 Y214.500 Z15.000
G1 X49.500 Y214.500 Z2.000
G1 X49.500 Y198.500 Z2.000
G1 X50.232 Y197.768
G1 X49.500 Y198.500
G1 X42.500 Y198.500 Z2.000
G1 X41.768 Y197.768
G1 X42.500 Y198.500
G1 X42.500 Y214.500 Z2.000
G1 X41.768 Y215.232
G1 X42.500 Y214.500
G1 X49.500 Y214.500 Z2.000
G1 X50.232 Y215.232
G1 X49.500 Y214.500
G0 Z17.000
G0 X49.500 Y142.500 Z17.000
G0 X49.500 Y142.500 Z15.000
G1 X49.500 Y142.500 Z2.000
G1 X49.500 Y126.500 Z2.000
G1 X50.232 Y125.768
G1 X49.500 Y126.500
G1 X42.500 Y126.500 Z2.000
G1 X41.768 Y125.768
G1 X42.500 Y126.500
G1 X42.500 Y142.500 Z2.000
G1 X41.768 Y143.232
G1 X42.500 Y142.500
G1 X49.500 Y142.500 Z2.000
G1 X50.232 Y143.232
G1 X49.500 Y142.500
G0 Z17.000
G0 X49.500 Y70.500 Z17.000
G0 X49.500 Y70.500 Z15.000
G1 X49.500 Y70.500 Z2.000
G1 X49.500 Y54.500 Z2.000
G1 X50.232 Y53.768
G1 X49.500 Y54.500
G1 X42.500 Y54.500 Z2.000
G1 X41.768 Y53.768
G1 X42.500 Y54.500
G1 X42.500 Y70.500 Z2.000
G1 X41.768 Y71.232
G1 X42.500 Y70.500
G1 X49.500 Y70.500 Z2.000
G1 X50.232 Y71.232
G1 X49.500 Y70.500
G0 Z17.000
G0 X54.500 Y49.500 Z17.000
G0 X54.500 Y49.500 Z15.000
G1 X54.500 Y49.500 Z2.000
G1 X70.500 Y49.500 Z2.000
G1 X71.232 Y50.232
G1 X70.500 Y49.500
G1 X70.500 Y42.500 Z2.000
G1 X71.232 Y41.768
G1 X70.500 Y42.500
G1 X54.500 Y42.500 Z2.000
G1 X53.768 Y41.768
G1 X54.500 Y42.500
G1 X54.500 Y49.500 Z2.000
G1 X53.768 Y50.232
G1 X54.500 Y49.500
G0 Z17.000
G0 X126.500 Z17.000
G0 X126.500 Z15.000
G1 X126.500 Y49.500 Z2.000
G1 X142.500 Y49.500 Z2.000
G1 X143.232 Y50.232
G1 X142.500 Y49.500
G1 X142.500 Y42.500 Z2.000
G1 X143.232 Y41.768
G1 X142.500 Y42.500
G1 X126.500 Y42.500 Z2.000
G1 X125.768 Y41.768
G1 X126.500 Y42.500
G1 X126.500 Y49.500 Z2.000
G1 X125.768 Y50.232
G1 X126.500 Y49.500
G0 Z17.000
G0 X198.500 Z17.000
G0 X198.500 Z15.000
G1 X198.500 Y49.500 Z2.000
G1 X214.500 Y49.500 Z2.000
G1 X215.232 Y50.232
G1 X214.500 Y49.500
G1 X214.500 Y42.500 Z2.000
G1 X215.232 Y41.768
G1 X214.500 Y42.500
G1 X198.500 Y42.500 Z2.000
G1 X197.768 Y41.768
G1 X198.500 Y42.500
G1 X198.500 Y49.500 Z2.000
G1 X197.768 Y50.232
G1 X198.500 Y49.500
G0 Z17.000
G0 X219.500 Y54.500 Z17.000
G0 X219.500 Y54.500 Z15.000
G1 X219.500 Y54.500 Z2.000
G1 X219.500 Y70.500 Z2.000
G1 X218.768 Y71.232
G1 X219.500 Y70.500
G1 X226.500 Y70.500 Z2.000
G1 X227.232 Y71.232
G1 X226.500 Y70.500
G1 X226.500 Y54.500 Z2.000
G1 X227.232 Y53.768
G1 X226.500 Y54.500
G1 X219.500 Y54.500 Z2.000
G1 X218.768 Y53.768
G1 X219.500 Y54.500
G0 Z17.000
G0 X231.500 Y49.500 Z17.000
G0 X231.500 Y49.500 Z15.000
G1 X231.500 Y49.500 Z2.000
G1 X247.500 Y49.500 Z2.000
G1 X248.232 Y50.232
G1 X247.500 Y49.500
G1 X247.500 Y42.500 Z2.000
G1 X248.232 Y41.768
G1 X247.500 Y42.500
G1 X231.500 Y42.500 Z2.000
G1 X230.768 Y41.768
G1 X231.500 Y42.500
G1 X231.500 Y49.500 Z2.000
G1 X230.768 Y50.232
G1 X231.500 Y49.500
G0 Z17.000
G0 X303.500 Z17.000
G0 X303.500 Z15.000
G1 X303.500 Y49.500 Z2.000
G1 X319.500 Y49.500 Z2.000
G1 X320.232 Y50.232
G1 X319.500 Y49.500
G1 X319.500 Y42.500 Z2.000
G1 X320.232 Y41.768
G1 X319.500 Y42.500
G1 X303.500 Y42.500 Z2.000
G1 X302.768 Y41.768
G1 X303.500 Y42.500
G1 X303.500 Y49.500 Z2.000
G1 X302.768 Y50.232
G1 X303.500 Y49.500
G0 Z17.000
G0 X226.500 Y126.500 Z17.000
G0 X226.500 Y126.500 Z15.000
G1 X226.500 Y126.500 Z2.000
G1 X219.500 Y126.500 Z2.000
G1 X218.768 Y125.768
G1 X219.500 Y126.500
G1 X219.500 Y142.500 Z2.000
G1 X218.768 Y143.232
G1 X219.500 Y142.500
G1 X226.500 Y142.500 Z2.000
G1 X227.232 Y143.232
G1 X226.500 Y142.500
G1 X226.500 Y126.500 Z2.000
G1 X227.232 Y125.768
G1 X226.500 Y126.500
G0 Z17.000
G0 X142.500 Y219.500 Z17.000
G0 X142.500 Y219.500 Z15.000
G1 X142.500 Y219.500 Z2.000
G1 X126.500 Y219.500 Z2.000
G1 X125.768 Y218.768
G1 X126.500 Y219.500
G1 X126.500 Y226.500 Z2.000
G1 X125.768 Y227.232
G1 X126.500 Y226.500
G1 X142.500 Y226.500 Z2.000
G1 X143.232 Y227.232
G1 X142.500 Y226.500
G1 X142.500 Y219.500 Z2.000
G1 X143.232 Y218.768
G1 X142.500 Y219.500
G0 Z17.000
G0 Y396.500 Z17.000
G0 Y396.500 Z15.000
G1 X142.500 Y396.500 Z2.000
G1 X126.500 Y396.500 Z2.000
G1 X125.768 Y395.768
G1 X126.500 Y396.500
G1 X126.500 Y403.500 Z2.000
G1 X125.768 Y404.232
G1 X126.500 Y403.500
G1 X142.500 Y403.500 Z2.000
G1 X143.232 Y404.232
G1 X142.500 Y403.500
G1 X142.500 Y396.500 Z2.000
G1 X143.232 Y395.768
G1 X142.500 Y396.500
G0 Z17.000
G0 X219.500 Y480.500 Z17.000
G0 X219.500 Y480.500 Z15.000
G1 X219.500 Y480.500 Z2.000
G1 X219.500 Y496.500 Z2.000
G1 X218.768 Y497.232
G1 X219.500 Y496.500
G1 X226.500 Y496.500 Z2.000
G1 X227.232 Y497.232
G1 X226.500 Y496.500
G1 X226.500 Y480.500 Z2.000
G1 X227.232 Y479.768
G1 X226.500 Y480.500
G1 X219.500 Y480.500 Z2.000
G1 X218.768 Y479.768
G1 X219.500 Y480.500
G0 Z17.000
G0 Y552.500 Z17.000
G0 Y552.500 Z15.000
G1 X219.500 Y552.500 Z2.000
G1 X219.500 Y571.000 Z2.000
G3 X217.000 Y573.500 Z2.000 I-2.500 J-0.000
G1 X198.500 Y573.500 Z2.000
G1 X197.768 Y572.768
G1 X198.500 Y573.500
G1 X198.500 Y580.500 Z2.000
G1 X197.768 Y581.232
G1 X198.500 Y580.500
G1 X217.000 Y580.500 Z2.000
G3 X219.500 Y583.000 Z2.000 I-0.000 J2.500
G1 X219.500 Y601.500 Z2.000
G1 X218.768 Y602.232
G1 X219.500 Y601.500
G1 X226.500 Y601.500 Z2.000
G1 X227.232 Y602.232
G1 X226.500 Y601.500
G1 X226.500 Y583.000 Z2.000
G3 X229.000 Y580.500 Z2.000 I2.500 J0.000
G1 X247.500 Y580.500 Z2.000
G1 X248.232 Y581.232
G1 X247.500 Y580.500
G1 X247.500 Y573.500 Z2.000
G1 X248.232 Y572.768
G1 X247.500 Y573.500
G1 X229.000 Y573.500 Z2.000
G3 X226.500 Y571.000 Z2.000 I0.000 J-2.500
G1 X226.500 Y552.500 Z2.000
G1 X227.232 Y551.768
G1 X226.500 Y552.500
G1 X219.500 Y552.500 Z2.000
G1 X218.768 Y551.768
G1 X219.500 Y552.500
G0 Z17.000
G0 X142.500 Y573.500 Z17.000
G0 X142.500 Y573.500 Z15.000
G1 X142.500 Y573.500 Z2.000
G1 X126.500 Y573.500 Z2.000
G1 X125.768 Y572.768
G1 X126.500 Y573.500
G1 X126.500 Y580.500 Z2.000
G1 X125.768 Y581.232
G1 X126.500 Y580.500
G1 X142.500 Y580.500 Z2.000
G1 X143.232 Y581.232
G1 X142.500 Y580.500
G1 X142.500 Y573.500 Z2.000
G1 X143.232 Y572.768
G1 X142.500 Y573.500
G0 Z17.000
G0 X219.500 Y657.500 Z17.000
G0 X219.500 Y657.500 Z15.000
G1 X219.500 Y657.500 Z2.000
G1 X219.500 Y673.500 Z2.000
G1 X218.768 Y674.232
G1 X219.500 Y673.500
G1 X226.500 Y673.500 Z2.000
G1 X227.232 Y674.232
G1 X226.500 Y673.500
G1 X226.500 Y657.500 Z2.000
G1 X227.232 Y656.768
G1 X226.500 Y657.500
G1 X219.500 Y657.500 Z2.000
G1 X218.768 Y656.768
G1 X219.500 Y657.500
G0 Z17.000
G0 X303.500 Y580.500 Z17.000
G0 X303.500 Y580.500 Z15.000
G1 X303.500 Y580.500 Z2.000
G1 X319.500 Y580.500 Z2.000
G1 X320.232 Y581.232
G1 X319.500 Y580.500
G1 X319.500 Y573.500 Z2.000
G1 X320.232 Y572.768
G1 X319.500 Y573.500
G1 X303.500 Y573.500 Z2.000
G1 X302.768 Y572.768
G1 X303.500 Y573.500
G1 X303.500 Y580.500 Z2.000
G1 X302.768 Y581.232
G1 X303.500 Y580.500
G0 Z17.000
G0 X375.500 Z17.000
G0 X375.500 Z15.000
G1 X375.500 Y580.500 Z2.000
G1 X394.000 Y580.500 Z2.000
G3 X396.500 Y583.000 Z2.000 I-0.000 J2.500
G1 X396.500 Y601.500 Z2.000
G1 X395.768 Y602.232
G1 X396.500 Y601.500
G1 X403.500 Y601.500 Z2.000
G1 X404.232 Y602.232
G1 X403.500 Y601.500
G1 X403.500 Y583.000 Z2.000
G3 X406.000 Y580.500 Z2.000 I2.500 J0.000
G1 X424.500 Y580.500 Z2.000
G1 X425.232 Y581.232
G1 X424.500 Y580.500
G1 X424.500 Y573.500 Z2.000
G1 X425.232 Y572.768
G1 X424.500 Y573.500
G1 X406.000 Y573.500 Z2.000
G3 X403.500 Y571.000 Z2.000 I0.000 J-2.500
G1 X403.500 Y552.500 Z2.000
G1 X404.232 Y551.768
G1 X403.500 Y552.500
G1 X396.500 Y552.500 Z2.000
G1 X395.768 Y551.768
G1 X396.500 Y552.500
G1 X396.500 Y571.000 Z2.000
G3 X394.000 Y573.500 Z2.000 I-2.500 J-0.000
G1 X375.500 Y573.500 Z2.000
G1 X374.768 Y572.768
G1 X375.500 Y573.500
G1 X375.500 Y580.500 Z2.000
G1 X374.768 Y581.232
G1 X375.500 Y580.500
G0 Z17.000
G0 X396.500 Y657.500 Z17.000
G0 X396.500 Y657.500 Z15.000
G1 X396.500 Y657.500 Z2.000
G1 X396.500 Y673.500 Z2.000
G1 X395.768 Y674.232
G1 X396.500 Y673.500
G1 X403.500 Y673.500 Z2.000
G1 X404.232 Y674.232
G1 X403.500 Y673.500
G1 X403.500 Y657.500 Z2.000
G1 X404.232 Y656.768
G1 X403.500 Y657.500
G1 X396.500 Y657.500 Z2.000
G1 X395.768 Y656.768
G1 X396.500 Y657.500
G0 Z17.000
G0 X480.500 Y580.500 Z17.000
G0 X480.500 Y580.500 Z15.000
G1 X480.500 Y580.500 Z2.000
G1 X496.500 Y580.500 Z2.000
G1 X497.232 Y581.232
G1 X496.500 Y580.500
G1 X496.500 Y573.500 Z2.000
G1 X497.232 Y572.768
G1 X496.500 Y573.500
G1 X480.500 Y573.500 Z2.000
G1 X479.768 Y572.768
G1 X480.500 Y573.500
G1 X480.500 Y580.500 Z2.000
G1 X479.768 Y581.232
G1 X480.500 Y580.500
G0 Z17.000
G0 X552.500 Z17.000
G0 X552.500 Z15.000
G1 X552.500 Y580.500 Z2.000
G1 X571.000 Y580.500 Z2.000
G3 X573.500 Y583.000 Z2.000 I-0.000 J2.500
G1 X573.500 Y601.500 Z2.000
G1 X572.768 Y602.232
G1 X573.500 Y601.500
G1 X580.500 Y601.500 Z2.000
G1 X581.232 Y602.232
G1 X580.500 Y601.500
G1 X580.500 Y583.000 Z2.000
G3 X583.000 Y580.500 Z2.000 I2.500 J0.000
G1 X601.500 Y580.500 Z2.000
G1 X602.232 Y581.232
G1 X601.500 Y580.500
G1 X601.500 Y573.500 Z2.000
G1 X602.232 Y572.768
G1 X601.500 Y573.500
G1 X583.000 Y573.500 Z2.000
G3 X580.500 Y571.000 Z2.000 I0.000 J-2.500
G1 X580.500 Y552.500 Z2.000
G1 X581.232 Y551.768
G1 X580.500 Y552.500
G1 X573.500 Y552.500 Z2.000
G1 X572.768 Y551.768
G1 X573.500 Y552.500
G1 X573.500 Y571.000 Z2.000
G3 X571.000 Y573.500 Z2.000 I-2.500 J-0.000
G1 X552.500 Y573.500 Z2.000
G1 X551.768 Y572.768
G1 X552.500 Y573.500
G1 X552.500 Y580.500 Z2.000
G1 X551.768 Y581.232
G1 X552.500 Y580.500
G0 Z17.000
G0 X573.500 Y657.500 Z17.000
G0 X573.500 Y657.500 Z15.000
G1 X573.500 Y657.500 Z2.000
G1 X573.500 Y673.500 Z2.000
G1 X572.768 Y674.232
G1 X573.500 Y673.500
G1 X580.500 Y673.500 Z2.000
G1 X581.232 Y674.232
G1 X580.500 Y673.500
G1 X580.500 Y657.500 Z2.000
G1 X581.232 Y656.768
G1 X580.500 Y657.500
G1 X573.500 Y657.500 Z2.000
G1 X572.768 Y656.768
G1 X573.500 Y657.500
G0 Z17.000
G0 X657.500 Y580.500 Z17.000
G0 X657.500 Y580.500 Z15.000
G1 X657.500 Y580.500 Z2.000
G1 X673.500 Y580.500 Z2.000
G1 X674.232 Y581.232
G1 X673.500 Y580.500
G1 X673.500 Y573.500 Z2.000
G1 X674.232 Y572.768
G1 X673.500 Y573.500
G1 X657.500 Y573.500 Z2.000
G1 X656.768 Y572.768
G1 X657.500 Y573.500
G1 X657.500 Y580.500 Z2.000
G1 X656.768 Y581.232
G1 X657.500 Y580.500
G0 Z17.000
G0 X580.500 Y496.500 Z17.000
G0 X580.500 Y496.500 Z15.000
G1 X580.500 Y496.500 Z2.000
G1 X580.500 Y480.500 Z2.000
G1 X581.232 Y479.768
G1 X580.500 Y480.500
G1 X573.500 Y480.500 Z2.000
G1 X572.768 Y479.768
G1 X573.500 Y480.500
G1 X573.500 Y496.500 Z2.000
G1 X572.768 Y497.232
G1 X573.500 Y496.500
G1 X580.500 Y496.500 Z2.000
G1 X581.232 Y497.232
G1 X580.500 Y496.500
G0 Z17.000
G0 Y424.500 Z17.000
G0 Y424.500 Z15.000
G1 X580.500 Y424.500 Z2.000
G1 X580.500 Y406.000 Z2.000
G3 X583.000 Y403.500 Z2.000 I2.500 J0.000
G1 X601.500 Y403.500 Z2.000
G1 X602.232 Y404.232
G1 X601.500 Y403.500
G1 X601.500 Y396.500 Z2.000
G1 X602.232 Y395.768
G1 X601.500 Y396.500
G1 X583.000 Y396.500 Z2.000
G3 X580.500 Y394.000 Z2.000 I0.000 J-2.500
G1 X580.500 Y375.500 Z2.000
G1 X581.232 Y374.768
G1 X580.500 Y375.500
G1 X573.500 Y375.500 Z2.000
G1 X572.768 Y374.768
G1 X573.500 Y375.500
G1 X573.500 Y394.000 Z2.000
G3 X571.000 Y396.500 Z2.000 I-2.500 J-0.000
G1 X552.500 Y396.500 Z2.000
G1 X551.768 Y395.768
G1 X552.500 Y396.500
G1 X552.500 Y403.500 Z2.000
G1 X551.768 Y404.232
G1 X552.500 Y403.500
G1 X571.000 Y403.500 Z2.000
G3 X573.500 Y406.000 Z2.000 I-0.000 J2.500
G1 X573.500 Y424.500 Z2.000
G1 X572.768 Y425.232
G1 X573.500 Y424.500
G1 X580.500 Y424.500 Z2.000
G1 X581.232 Y425.232
G1 X580.500 Y424.500
G0 Z17.000
G0 X657.500 Y403.500 Z17.000
G0 X657.500 Y403.500 Z15.000
G1 X657.500 Y403.500 Z2.000
G1 X673.500 Y403.500 Z2.000
G1 X674.232 Y404.232
G1 X673.500 Y403.500
G1 X673.500 Y396.500 Z2.000
G1 X674.232 Y395.768
G1 X673.500 Y396.500
G1 X657.500 Y396.500 Z2.000
G1 X656.768 Y395.768
G1 X657.500 Y396.500
G1 X657.500 Y403.500 Z2.000
G1 X656.768 Y404.232
G1 X657.500 Y403.500
G0 Z17.000
G0 X580.500 Y319.500 Z17.000
G0 X580.500 Y319.500 Z15.000
G1 X580.500 Y319.500 Z2.000
G1 X580.500 Y303.500 Z2.000
G1 X581.232 Y302.768
G1 X580.500 Y303.500
G1 X573.500 Y303.500 Z2.000
G1 X572.768 Y302.768
G1 X573.500 Y303.500
G1 X573.500 Y319.500 Z2.000
G1 X572.768 Y320.232
G1 X573.500 Y319.500
G1 X580.500 Y319.500 Z2.000
G1 X581.232 Y320.232
G1 X580.500 Y319.500
G0 Z17.000
G0 Y247.500 Z17.000
G0 Y247.500 Z15.000
G1 X580.500 Y247.500 Z2.000
G1 X580.500 Y229.000 Z2.000
G3 X583.000 Y226.500 Z2.000 I2.500 J0.000
G1 X601.500 Y226.500 Z2.000
G1 X602.232 Y227.232
G1 X601.500 Y226.500
G1 X601.500 Y219.500 Z2.000
G1 X602.232 Y218.768
G1 X601.500 Y219.500
G1 X583.000 Y219.500 Z2.000
G3 X580.500 Y217.000 Z2.000 I0.000 J-2.500
G1 X580.500 Y198.500 Z2.000
G1 X581.232 Y197.768
G1 X580.500 Y198.500
G1 X573.500 Y198.500 Z2.000
G1 X572.768 Y197.768
G1 X573.500 Y198.500
G1 X573.500 Y217.000 Z2.000
G3 X571.000 Y219.500 Z2.000 I-2.500 J-0.000
G1 X552.500 Y219.500 Z2.000
G1 X551.768 Y218.768
G1 X552.500 Y219.500
G1 X552.500 Y226.500 Z2.000
G1 X551.768 Y227.232
G1 X552.500 Y226.500
G1 X571.000 Y226.500 Z2.000
G3 X573.500 Y229.000 Z2.000 I-0.000 J2.500
G1 X573.500 Y247.500 Z2.000
G1 X572.768 Y248.232
G1 X573.500 Y247.500
G1 X580.500 Y247.500 Z2.000
G1 X581.232 Y248.232
G1 X580.500 Y247.500
G0 Z17.000
G0 X657.500 Y226.500 Z17.000
G0 X657.500 Y226.500 Z15.000
G1 X657.500 Y226.500 Z2.000
G1 X673.500 Y226.500 Z2.000
G1 X674.232 Y227.232
G1 X673.500 Y226.500
G1 X673.500 Y219.500 Z2.000
G1 X674.232 Y218.768
G1 X673.500 Y219.500
G1 X657.500 Y219.500 Z2.000
G1 X656.768 Y218.768
G1 X657.500 Y219.500
G1 X657.500 Y226.500 Z2.000
G1 X656.768 Y227.232
G1 X657.500 Y226.500
G0 Z17.000
G0 X580.500 Y142.500 Z17.000
G0 X580.500 Y142.500 Z15.000
G1 X580.500 Y142.500 Z2.000
G1 X580.500 Y126.500 Z2.000
G1 X581.232 Y125.768
G1 X580.500 Y126.500
G1 X573.500 Y126.500 Z2.000
G1 X572.768 Y125.768
G1 X573.500 Y126.500
G1 X573.500 Y142.500 Z2.000
G1 X572.768 Y143.232
G1 X573.500 Y142.500
G1 X580.500 Y142.500 Z2.000
G1 X581.232 Y143.232
G1 X580.500 Y142.500
G0 Z17.000
G0 X496.500 Y219.500 Z17.000
G0 X496.500 Y219.500 Z15.000
G1 X496.500 Y219.500 Z2.000
G1 X480.500 Y219.500 Z2.000
G1 X479.768 Y218.768
G1 X480.500 Y219.500
G1 X480.500 Y226.500 Z2.000
G1 X479.768 Y227.232
G1 X480.500 Y226.500
G1 X496.500 Y226.500 Z2.000
G1 X497.232 Y227.232
G1 X496.500 Y226.500
G1 X496.500 Y219.500 Z2.000
G1 X497.232 Y218.768
G1 X496.500 Y219.500
G0 Z17.000
G0 Y396.500 Z17.000
G0 Y396.500 Z15.000
G1 X496.500 Y396.500 Z2.000
G1 X480.500 Y396.500 Z2.000
G1 X479.768 Y395.768
G1 X480.500 Y396.500
G1 X480.500 Y403.500 Z2.000
G1 X479.768 Y404.232
G1 X480.500 Y403.500
G1 X496.500 Y403.500 Z2.000
G1 X497.232 Y404.232
G1 X496.500 Y403.500
G1 X496.500 Y396.500 Z2.000
G1 X497.232 Y395.768
G1 X496.500 Y396.500
G0 Z17.000
G0 X403.500 Y480.500 Z17.000
G0 X403.500 Y480.500 Z15.000
G1 X403.500 Y480.500 Z2.000
G1 X396.500 Y480.500 Z2.000
G1 X395.768 Y479.768
G1 X396.500 Y480.500
G1 X396.500 Y496.500 Z2.000
G1 X395.768 Y497.232
G1 X396.500 Y496.500
G1 X403.500 Y496.500 Z2.000
G1 X404.232 Y497.232
G1 X403.500 Y496.500
G1 X403.500 Y480.500 Z2.000
G1 X404.232 Y479.768
G1 X403.500 Y480.500
G1 X403.500 Y480.500 Z0.000
G1 X396.500 Y480.500 Z0.000
G1 X395.768 Y479.768
G1 X396.500 Y480.500
G1 X396.500 Y496.500 Z0.000
G1 X395.768 Y497.232
G1 X396.500 Y496.500
G1 X403.500 Y496.500 Z0.000
G1 X404.232 Y497.232
G1 X403.500 Y496.500
G1 X403.500 Y480.500 Z0.000
G1 X404.232 Y479.768
G1 X403.500 Y480.500
G0 Z17.000
G0 Y424.500 Z17.000
G0 Y424.500 Z15.000
G1 X403.500 Y424.500 Z0.000
G1 X403.500 Y406.000 Z0.000
G3 X406.000 Y403.500 Z0.000 I2.500 J0.000
G1 X424.500 Y403.500 Z0.000
G1 X425.232 Y404.232
G1 X424.500 Y403.500
G1 X424.500 Y396.500 Z0.000
G1 X425.232 Y395.768
G1 X424.500 Y396.500
G1 X406.000 Y396.500 Z0.000
G3 X403.500 Y394.000 Z0.000 I0.000 J-2.500
G1 X403.500 Y375.500 Z0.000
G1 X404.232 Y374.768
G1 X403.500 Y375.500
G1 X396.500 Y375.500 Z0.000
G1 X395.768 Y374.768
G1 X396.500 Y375.500
G1 X396.500 Y394.000 Z0.000
G3 X394.000 Y396.500 Z0.000 I-2.500 J-0.000
G1 X375.500 Y396.500 Z0.000
G1 X374.768 Y395.768
G1 X375.500 Y396.500
G1 X375.500 Y403.500 Z0.000
G1 X374.768 Y404.232
G1 X375.500 Y403.500
G1 X394.000 Y403.500 Z0.000
G3 X396.500 Y406.000 Z0.000 I-0.000 J2.500
G1 X396.500 Y424.500 Z0.000
G1 X395.768 Y425.232
G1 X396.500 Y424.500
G1 X403.500 Y424.500 Z0.000
G1 X404.232 Y425.232
G1 X403.500 Y424.500
G0 Z17.000
G0 X480.500 Y403.500 Z17.000
G0 X480.500 Y403.500 Z15.000
G1 X480.500 Y403.500 Z0.000
G1 X496.500 Y403.500 Z0.000
G1 X497.232 Y404.232
G1 X496.500 Y403.500
G1 X496.500 Y396.500 Z0.000
G1 X497.232 Y395.768
G1 X496.500 Y396.500
G1 X480.500 Y396.500 Z0.000
G1 X479.768 Y395.768
G1 X480.500 Y396.500
G1 X480.500 Y403.500 Z0.000
G1 X479.768 Y404.232
G1 X480.500 Y403.500
G0 Z17.000
G0 X552.500 Z17.000
G0 X552.500 Z15.000
G1 X552.500 Y403.500 Z0.000
G1 X571.000 Y403.500 Z0.000
G3 X573.500 Y406.000 Z0.000 I-0.000 J2.500
G1 X573.500 Y424.500 Z0.000
G1 X572.768 Y425.232
G1 X573.500 Y424.500
G1 X580.500 Y424.500 Z0.000
G1 X581.232 Y425.232
G1 X580.500 Y424.500
G1 X580.500 Y406.000 Z0.000
G3 X583.000 Y403.500 Z0.000 I2.500 J0.000
G1 X601.500 Y403.500 Z0.000
G1 X602.232 Y404.232
G1 X601.500 Y403.500
G1 X601.500 Y396.500 Z0.000
G1 X602.232 Y395.768
G1 X601.500 Y396.500
G1 X583.000 Y396.500 Z0.000
G3 X580.500 Y394.000 Z0.000 I0.000 J-2.500
G1 X580.500 Y375.500 Z0.000
G1 X581.232 Y374.768
G1 X580.500 Y375.500
G1 X573.500 Y375.500 Z0.000
G1 X572.768 Y374.768
G1 X573.500 Y375.500
G1 X573.500 Y394.000 Z0.000
G3 X571.000 Y396.500 Z0.000 I-2.500 J-0.000
G1 X552.500 Y396.500 Z0.000
G1 X551.768 Y395.768
G1 X552.500 Y396.500
G1 X552.500 Y403.500 Z0.000
G1 X551.768 Y404.232
G1 X552.500 Y403.500
G0 Z17.000
G0 X573.500 Y480.500 Z17.000
G0 X573.500 Y480.500 Z15.000
G1 X573.500 Y480.500 Z0.000
G1 X573.500 Y496.500 Z0.000
G1 X572.768 Y497.232
G1 X573.500 Y496.500
G1 X580.500 Y496.500 Z0.000
G1 X581.232 Y497.232
G1 X580.500 Y496.500
G1 X580.500 Y480.500 Z0.000
G1 X581.232 Y479.768
G1 X580.500 Y480.500
G1 X573.500 Y480.500 Z0.000
G1 X572.768 Y479.768
G1 X573.500 Y480.500
G0 Z17.000
G0 Y552.500 Z17.000
G0 Y552.500 Z15.000
G1 X573.500 Y552.500 Z0.000
G1 X573.500 Y571.000 Z0.000
G3 X571.000 Y573.500 Z0.000 I-2.500 J-0.000
G1 X552.500 Y573.500 Z0.000
G1 X551.768 Y572.768
G1 X552.500 Y573.500
G1 X552.500 Y580.500 Z0.000
G1 X551.768 Y581.232
G1 X552.500 Y580.500
G1 X571.000 Y580.500 Z0.000
G3 X573.500 Y583.000 Z0.000 I-0.000 J2.500
G1 X573.500 Y601.500 Z0.000
G1 X572.768 Y602.232
G1 X573.500 Y601.500
G1 X580.500 Y601.500 Z0.000
G1 X581.232 Y602.232
G1 X580.500 Y601.500
G1 X580.500 Y583.000 Z0.000
G3 X583.000 Y580.500 Z0.000 I2.500 J0.000
G1 X601.500 Y580.500 Z0.000
G1 X602.232 Y581.232
G1 X601.500 Y580.500
G1 X601.500 Y573.500 Z0.000
G1 X602.232 Y572.768
G1 X601.500 Y573.500
G1 X583.000 Y573.500 Z0.000
G3 X580.500 Y571.000 Z0.000 I0.000 J-2.500
G1 X580.500 Y552.500 Z0.000
G1 X581.232 Y551.768
G1 X580.500 Y552.500
G1 X573.500 Y552.500 Z0.000
G1 X572.768 Y551.768
G1 X573.500 Y552.500
G0 Z17.000
G0 X496.500 Y573.500 Z17.000
G0 X496.500 Y573.500 Z15.000
G1 X496.500 Y573.500 Z0.000
G1 X480.500 Y573.500 Z0.000
G1 X479.768 Y572.768
G1 X480.500 Y573.500
G1 X480.500 Y580.500 Z0.000
G1 X479.768 Y581.232
G1 X480.500 Y580.500
G1 X496.500 Y580.500 Z0.000
G1 X497.232 Y581.232
G1 X496.500 Y580.500
G1 X496.500 Y573.500 Z0.000
G1 X497.232 Y572.768
G1 X496.500 Y573.500
G0 Z17.000
G0 X424.500 Z17.000
G0 X424.500 Z15.000
G1 X424.500 Y573.500 Z0.000
G1 X406.000 Y573.500 Z0.000
G3 X403.500 Y571.000 Z0.000 I0.000 J-2.500
G1 X403.500 Y552.500 Z0.000
G1 X404.232 Y551.768
G1 X403.500 Y552.500
G1 X396.500 Y552.500 Z0.000
G1 X395.768 Y551.768
G1 X396.500 Y552.500
G1 X396.500 Y571.000 Z0.000
G3 X394.000 Y573.500 Z0.000 I-2.500 J-0.000
G1 X375.500 Y573.500 Z0.000
G1 X374.768 Y572.768
G1 X375.500 Y573.500
G1 X375.500 Y580.500 Z0.000
G1 X374.768 Y581.232
G1 X375.500 Y580.500
G1 X394.000 Y580.500 Z0.000
G3 X396.500 Y583.000 Z0.000 I-0.000 J2.500
G1 X396.500 Y601.500 Z0.000
G1 X395.768 Y602.232
G1 X396.500 Y601.500
G1 X403.500 Y601.500 Z0.000
G1 X404.232 Y602.232
G1 X403.500 Y601.500
G1 X403.500 Y583.000 Z0.000
G3 X406.000 Y580.500 Z0.000 I2.500 J0.000
G1 X424.500 Y580.500 Z0.000
G1 X425.232 Y581.232
G1 X424.500 Y580.500
G1 X424.500 Y573.500 Z0.000
G1 X425.232 Y572.768
G1 X424.500 Y573.500
G0 Z17.000
G0 X403.500 Y657.500 Z17.000
G0 X403.500 Y657.500 Z15.000
G1 X403.500 Y657.500 Z0.000
G1 X396.500 Y657.500 Z0.000
G1 X395.768 Y656.768
G1 X396.500 Y657.500
G1 X396.500 Y673.500 Z0.000
G1 X395.768 Y674.232
G1 X396.500 Y673.500
G1 X403.500 Y673.500 Z0.000
G1 X404.232 Y674.232
G1 X403.500 Y673.500
G1 X403.500 Y657.500 Z0.000
G1 X404.232 Y656.768
G1 X403.500 Y657.500
G0 Z17.000
G0 Y729.500 Z17.000
G0 Y729.500 Z15.000
G1 X403.500 Y729.500 Z0.000
G1 X396.500 Y729.500 Z0.000
G1 X395.768 Y728.768
G1 X396.500 Y729.500
G1 X396.500 Y745.500 Z0.000
G1 X395.768 Y746.232
G1 X396.500 Y745.500
G1 X403.500 Y745.500 Z0.000
G1 X404.232 Y746.232
G1 X403.500 Y745.500
G1 X403.500 Y729.500 Z0.000
G1 X404.232 Y728.768
G1 X403.500 Y729.500
G0 Z17.000
G0 X408.500 Y750.500 Z17.000
G0 X408.500 Y750.500 Z15.000
G1 X408.500 Y750.500 Z0.000
G1 X408.500 Y757.500 Z0.000
G1 X407.768 Y758.232
G1 X408.500 Y757.500
G1 X424.500 Y757.500 Z0.000
G1 X425.232 Y758.232
G1 X424.500 Y757.500
G1 X424.500 Y750.500 Z0.000
G1 X425.232 Y749.768
G1 X424.500 Y750.500
G1 X408.500 Y750.500 Z0.000
G1 X407.768 Y749.768
G1 X408.500 Y750.500
G0 Z17.000
G0 X391.500 Z17.000
G0 X391.500 Z15.000
G1 X391.500 Y750.500 Z0.000
G1 X375.500 Y750.500 Z0.000
G1 X374.768 Y749.768
G1 X375.500 Y750.500
G1 X375.500 Y757.500 Z0.000
G1 X374.768 Y758.232
G1 X375.500 Y757.500
G1 X391.500 Y757.500 Z0.000
G1 X392.232 Y758.232
G1 X391.500 Y757.500
G1 X391.500 Y750.500 Z0.000
G1 X392.232 Y749.768
G1 X391.500 Y750.500
G0 Z17.000
G0 X319.500 Z17.000
G0 X319.500 Z15.000
G1 X319.500 Y750.500 Z0.000
G1 X303.500 Y750.500 Z0.000
G1 X302.768 Y749.768
G1 X303.500 Y750.500
G1 X303.500 Y757.500 Z0.000
G1 X302.768 Y758.232
G1 X303.500 Y757.500
G1 X319.500 Y757.500 Z0.000
G1 X320.232 Y758.232
G1 X319.500 Y757.500
G1 X319.500 Y750.500 Z0.000
G1 X320.232 Y749.768
G1 X319.500 Y750.500
G0 Z17.000
G0 X247.500 Z17.000
G0 X247.500 Z15.000
G1 X247.500 Y750.500 Z0.000
G1 X231.500 Y750.500 Z0.000
G1 X230.768 Y749.768
G1 X231.500 Y750.500
G1 X231.500 Y757.500 Z0.000
G1 X230.768 Y758.232
G1 X231.500 Y757.500
G1 X247.500 Y757.500 Z0.000
G1 X248.232 Y758.232
G1 X247.500 Y757.500
G1 X247.500 Y750.500 Z0.000
G1 X248.232 Y749.768
G1 X247.500 Y750.500
G0 Z17.000
G0 X226.500 Y745.500 Z17.000
G0 X226.500 Y745.500 Z15.000
G1 X226.500 Y745.500 Z0.000
G1 X226.500 Y729.500 Z0.000
G1 X227.232 Y728.768
G1 X226.500 Y729.500
G1 X219.500 Y729.500 Z0.000
G1 X218.768 Y728.768
G1 X219.500 Y729.500
G1 X219.500 Y745.500 Z0.000
G1 X218.768 Y746.232
G1 X219.500 Y745.500
G1 X226.500 Y745.500 Z0.000
G1 X227.232 Y746.232
G1 X226.500 Y745.500
G0 Z17.000
G0 X214.500 Y750.500 Z17.000
G0 X214.500 Y750.500 Z15.000
G1 X214.500 Y750.500 Z0.000
G1 X198.500 Y750.500 Z0.000
G1 X197.768 Y749.768
G1 X198.500 Y750.500
G1 X198.500 Y757.500 Z0.000
G1 X197.768 Y758.232
G1 X198.500 Y757.500
G1 X214.500 Y757.500 Z0.000
G1 X215.232 Y758.232
G1 X214.500 Y757.500
G1 X214.500 Y750.500 Z0.000
G1 X215.232 Y749.768
G1 X214.500 Y750.500
G0 Z17.000
G0 X142.500 Z17.000
G0 X142.500 Z15.000
G1 X142.500 Y750.500 Z0.000
G1 X126.500 Y750.500 Z0.000
G1 X125.768 Y749.768
G1 X126.500 Y750.500
G1 X126.500 Y757.500 Z0.000
G1 X125.768 Y758.232
G1 X126.500 Y757.500
G1 X142.500 Y757.500 Z0.000
G1 X143.232 Y758.232
G1 X142.500 Y757.500
G1 X142.500 Y750.500 Z0.000
G1 X143.232 Y749.768
G1 X142.500 Y750.500
G0 Z17.000
G0 X70.500 Z17.000
G0 X70.500 Z15.000
G1 X70.500 Y750.500 Z0.000
G1 X54.500 Y750.500 Z0.000
G1 X53.768 Y749.768
G1 X54.500 Y750.500
G1 X54.500 Y757.500 Z0.000
G1 X53.768 Y758.232
G1 X54.500 Y757.500
G1 X70.500 Y757.500 Z0.000
G1 X71.232 Y758.232
G1 X70.500 Y757.500
G1 X70.500 Y750.500 Z0.000
G1 X71.232 Y749.768
G1 X70.500 Y750.500
G0 Z17.000
G0 X49.500 Y745.500 Z17.000
G0 X49.500 Y745.500 Z15.000
G1 X49.500 Y745.500 Z0.000
G1 X49.500 Y729.500 Z0.000
G1 X50.232 Y728.768
G1 X49.500 Y729.500
G1 X42.500 Y729.500 Z0.000
G1 X41.768 Y728.768
G1 X42.500 Y729.500
G1 X42.500 Y745.500 Z0.000
G1 X41.768 Y746.232
G1 X42.500 Y745.500
G1 X49.500 Y745.500 Z0.000
G1 X50.232 Y746.232
G1 X49.500 Y745.500
G0 Z17.000
G0 X49.500 Y673.500 Z17.000
G0 X49.500 Y673.500 Z15.000
G1 X49.500 Y673.500 Z0.000
G1 X49.500 Y657.500 Z0.000
G1 X50.232 Y656.768
G1 X49.500 Y657.500
G1 X42.500 Y657.500 Z0.000
G1 X41.768 Y656.768
G1 X42.500 Y657.500
G1 X42.500 Y673.500 Z0.000
G1 X41.768 Y674.232
G1 X42.500 Y673.500
G1 X49.500 Y673.500 Z0.000
G1 X50.232 Y674.232
G1 X49.500 Y673.500
G0 Z17.000
G0 X49.500 Y601.500 Z17.000
G0 X49.500 Y601.500 Z15.000
G1 X49.500 Y601.500 Z0.000
G1 X49.500 Y585.500 Z0.000
G1 X50.232 Y584.768
G1 X49.500 Y585.500
G1 X42.500 Y585.500 Z0.000
G1 X41.768 Y584.768
G1 X42.500 Y585.500
G1 X42.500 Y601.500 Z0.000
G1 X41.768 Y602.232
G1 X42.500 Y601.500
G1 X49.500 Y601.500 Z0.000
G1 X50.232 Y602.232
G1 X49.500 Y601.500
G0 Z17.000
G0 X54.500 Y580.500 Z17.000
G0 X54.500 Y580.500 Z15.000
G1 X54.500 Y580.500 Z0.000
G1 X70.500 Y580.500 Z0.000
G1 X71.232 Y581.232
G1 X70.500 Y580.500
G1 X70.500 Y573.500 Z0.000
G1 X71.232 Y572.768
G1 X70.500 Y573.500
G1 X54.500 Y573.500 Z0.000
G1 X53.768 Y572.768
G1 X54.500 Y573.500
G1 X54.500 Y580.500 Z0.000
G1 X53.768 Y581.232
G1 X54.500 Y580.500
G0 Z17.000
G0 X49.500 Y568.500 Z17.000
G0 X49.500 Y568.500 Z15.000
G1 X49.500 Y568.500 Z0.000
G1 X49.500 Y552.500 Z0.000
G1 X50.232 Y551.768
G1 X49.500 Y552.500
G1 X42.500 Y552.500 Z0.000
G1 X41.768 Y551.768
G1 X42.500 Y552.500
G1 X42.500 Y568.500 Z0.000
G1 X41.768 Y569.232
G1 X42.500 Y568.500
G1 X49.500 Y568.500 Z0.000
G1 X50.232 Y569.232
G1 X49.500 Y568.500
G0 Z17.000
G0 X49.500 Y496.500 Z17.000
G0 X49.500 Y496.500 Z15.000
G1 X49.500 Y496.500 Z0.000
G1 X49.500 Y480.500 Z0.000
G1 X50.232 Y479.768
G1 X49.500 Y480.500
G1 X42.500 Y480.500 Z0.000
G1 X41.768 Y479.768
G1 X42.500 Y480.500
G1 X42.500 Y496.500 Z0.000
G1 X41.768 Y497.232
G1 X42.500 Y496.500
G1 X49.500 Y496.500 Z0.000
G1 X50.232 Y497.232
G1 X49.500 Y496.500
G0 Z17.000
G0 X49.500 Y424.500 Z17.000
G0 X49.500 Y424.500 Z15.000
G1 X49.500 Y424.500 Z0.000
G1 X49.500 Y408.500 Z0.000
G1 X50.232 Y407.768
G1 X49.500 Y408.500
G1 X42.500 Y408.500 Z0.000
G1 X41.768 Y407.768
G1 X42.500 Y408.500
G1 X42.500 Y424.500 Z0.000
G1 X41.768 Y425.232
G1 X42.500 Y424.500
G1 X49.500 Y424.500 Z0.000
G1 X50.232 Y425.232
G1 X49.500 Y424.500
G0 Z17.000
G0 X54.500 Y403.500 Z17.000
G0 X54.500 Y403.500 Z15.000
G1 X54.500 Y403.500 Z0.000
G1 X70.500 Y403.500 Z0.000
G1 X71.232 Y404.232
G1 X70.500 Y403.500
G1 X70.500 Y396.500 Z0.000
G1 X71.232 Y395.768
G1 X70.500 Y396.500
G1 X54.500 Y396.500 Z0.000
G1 X53.768 Y395.768
G1 X54.500 Y396.500
G1 X54.500 Y403.500 Z0.000
G1 X53.768 Y404.232
G1 X54.500 Y403.500
G0 Z17.000
G0 X49.500 Y391.500 Z17.000
G0 X49.500 Y391.500 Z15.000
G1 X49.500 Y391.500 Z0.000
G1 X49.500 Y375.500 Z0.000
G1 X50.232 Y374.768
G1 X49.500 Y375.500
G1 X42.500 Y375.500 Z0.000
G1 X41.768 Y374.768
G1 X42.500 Y375.500
G1 X42.500 Y391.500 Z0.000
G1 X41.768 Y392.232
G1 X42.500 Y391.500
G1 X49.500 Y391.500 Z0.000
G1 X50.232 Y392.232
G1 X49.500 Y391.500
G0 Z17.000
G0 X49.500 Y319.500 Z17.000
G0 X49.500 Y319.500 Z15.000
G1 X49.500 Y319.500 Z0.000
G1 X49.500 Y303.500 Z0.000
G1 X50.232 Y302.768
G1 X49.500 Y303.500
G1 X42.500 Y303.500 Z0.000
G1 X41.768 Y302.768
G1 X42.500 Y303.500
G1 X42.500 Y319.500 Z0.000
G1 X41.768 Y320.232
G1 X42.500 Y319.500
G1 X49.500 Y319.500 Z0.000
G1 X50.232 Y320.232
G1 X49.500 Y319.500
G0 Z17.000
G0 X49.500 Y247.500 Z17.000
G0 X49.500 Y247.500 Z15.000
G1 X49.500 Y247.500 Z0.000
G1 X49.500 Y231.500 Z0.000
G1 X50.232 Y230.768
G1 X49.500 Y231.500
G1 X42.500 Y231.500 Z0.000
G1 X41.768 Y230.768
G1 X42.500 Y231.500
G1 X42.500 Y247.500 Z0.000
G1 X41.768 Y248.232
G1 X42.500 Y247.500
G1 X49.500 Y247.500 Z0.000
G1 X50.232 Y248.232
G1 X49.500 Y247.500
G0 Z17.000
G0 X54.500 Y226.500 Z17.000
G0 X54.500 Y226.500 Z15.000
G1 X54.500 Y226.500 Z0.000
G1 X70.500 Y226.500 Z0.000
G1 X71.232 Y227.232
G1 X70.500 Y226.500
G1 X70.500 Y219.500 Z0.000
G1 X71.232 Y218.768
G1 X70.500 Y219.500
G1 X54.500 Y219.500 Z0.000
G1 X53.768 Y218.768
G1 X54.500 Y219.500
G1 X54.500 Y226.500 Z0.000
G1 X53.768 Y227.232
G1 X54.500 Y226.500
G0 Z17.000
G0 X49.500 Y214.500 Z17.000
G0 X49.500 Y214.500 Z15.000
G1 X49.500 Y214.500 Z0.000
G1 X49.500 Y198.500 Z0.000
G1 X50.232 Y197.768
G1 X49.500 Y198.500
G1 X42.500 Y198.500 Z0.000
G1 X41.768 Y197.768
G1 X42.500 Y198.500
G1 X42.500 Y214.500 Z0.000
G1 X41.768 Y215.232
G1 X42.500 Y214.500
G1 X49.500 Y214.500 Z0.000
G1 X50.232 Y215.232
G1 X49.500 Y214.500
G0 Z17.000
G0 X49.500 Y142.500 Z17.000
G0 X49.500 Y142.500 Z15.000
G1 X49.500 Y142.500 Z0.000
G1 X49.500 Y126.500 Z0.000
G1 X50.232 Y125.768
G1 X49.500 Y126.500
G1 X42.500 Y126.500 Z0.000
G1 X41.768 Y125.768
G1 X42.500 Y126.500
G1 X42.500 Y142.500 Z0.000
G1 X41.768 Y143.232
G1 X42.500 Y142.500
G1 X49.500 Y142.500 Z0.000
G1 X50.232 Y143.232
G1 X49.500 Y142.500
G0 Z17.000
G0 X49.500 Y70.500 Z17.000
G0 X49.500 Y70.500 Z15.000
G1 X49.500 Y70.500 Z0.000
G1 X49.500 Y54.500 Z0.000
G1 X50.232 Y53.768
G1 X49.500 Y54.500
G1 X42.500 Y54.500 Z0.000
G1 X41.768 Y53.768
G1 X42.500 Y54.500
G1 X42.500 Y70.500 Z0.000
G1 X41.768 Y71.232
G1 X42.500 Y70.500
G1 X49.500 Y70.500 Z0.000
G1 X50.232 Y71.232
G1 X49.500 Y70.500
G0 Z17.000
G0 X54.500 Y49.500 Z17.000
G0 X54.500 Y49.500 Z15.000
G1 X54.500 Y49.500 Z0.000
G1 X70.500 Y49.500 Z0.000
G1 X71.232 Y50.232
G1 X70.500 Y49.500
G1 X70.500 Y42.500 Z0.000
G1 X71.232 Y41.768
G1 X70.500 Y42.500
G1 X54.500 Y42.500 Z0.000
G1 X53.768 Y41.768
G1 X54.500 Y42.500
G1 X54.500 Y49.500 Z0.000
G1 X53.768 Y50.232
G1 X54.500 Y49.500
G0 Z17.000
G0 X126.500 Z17.000
G0 X126.500 Z15.000
G1 X126.500 Y49.500 Z0.000
G1 X142.500 Y49.500 Z0.000
G1 X143.232 Y50.232
G1 X142.500 Y49.500
G1 X142.500 Y42.500 Z0.000
G1 X143.232 Y41.768
G1 X142.500 Y42.500
G1 X126.500 Y42.500 Z0.000
G1 X125.768 Y41.768
G1 X126.500 Y42.500
G1 X126.500 Y49.500 Z0.000
G1 X125.768 Y50.232
G1 X126.500 Y49.500
G0 Z17.000
G0 X198.500 Z17.000
G0 X198.500 Z15.000
G1 X198.500 Y49.500 Z0.000
G1 X214.500 Y49.500 Z0.000
G1 X215.232 Y50.232
G1 X214.500 Y49.500
G1 X214.500 Y42.500 Z0.000
G1 X215.232 Y41.768
G1 X214.500 Y42.500
G1 X198.500 Y42.500 Z0.000
G1 X197.768 Y41.768
G1 X198.500 Y42.500
G1 X198.500 Y49.500 Z0.000
G1 X197.768 Y50.232
G1 X198.500 Y49.500
G0 Z17.000
G0 X219.500 Y54.500 Z17.000
G0 X219.500 Y54.500 Z15.000
G1 X219.500 Y54.500 Z0.000
G1 X219.500 Y70.500 Z0.000
G1 X218.768 Y71.232
G1 X219.500 Y70.500
G1 X226.500 Y70.500 Z0.000
G1 X227.232 Y71.232
G1 X226.500 Y70.500
G1 X226.500 Y54.500 Z0.000
G1 X227.232 Y53.768
G1 X226.500 Y54.500
G1 X219.500 Y54.500 Z0.000
G1 X218.768 Y53.768
G1 X219.500 Y54.500
G0 Z17.000
G0 X231.500 Y49.500 Z17.000
G0 X231.500 Y49.500 Z15.000
G1 X231.500 Y49.500 Z0.000
G1 X247.500 Y49.500 Z0.000
G1 X248.232 Y50.232
G1 X247.500 Y49.500
G1 X247.500 Y42.500 Z0.000
G1 X248.232 Y41.768
G1 X247.500 Y42.500
G1 X231.500 Y42.500 Z0.000
G1 X230.768 Y41.768
G1 X231.500 Y42.500
G1 X231.500 Y49.500 Z0.000
G1 X230.768 Y50.232
G1 X231.500 Y49.500
G0 Z17.000
G0 X303.500 Z17.000
G0 X303.500 Z15.000
G1 X303.500 Y49.500 Z0.000
G1 X319.500 Y49.500 Z0.000
G1 X320.232 Y50.232
G1 X319.500 Y49.500
G1 X319.500 Y42.500 Z0.000
G1 X320.232 Y41.768
G1 X319.500 Y42.500
G1 X303.500 Y42.500 Z0.000
G1 X302.768 Y41.768
G1 X303.500 Y42.500
G1 X303.500 Y49.500 Z0.000
G1 X302.768 Y50.232
G1 X303.500 Y49.500
G0 Z17.000
G0 X375.500 Z17.000
G0 X375.500 Z15.000
G1 X375.500 Y49.500 Z0.000
G1 X391.500 Y49.500 Z0.000
G1 X392.232 Y50.232
G1 X391.500 Y49.500
G1 X391.500 Y42.500 Z0.000
G1 X392.232 Y41.768
G1 X391.500 Y42.500
G1 X375.500 Y42.500 Z0.000
G1 X374.768 Y41.768
G1 X375.500 Y42.500
G1 X375.500 Y49.500 Z0.000
G1 X374.768 Y50.232
G1 X375.500 Y49.500
G0 Z17.000
G0 X396.500 Y54.500 Z17.000
G0 X396.500 Y54.500 Z15.000
G1 X396.500 Y54.500 Z0.000
G1 X396.500 Y70.500 Z0.000
G1 X395.768 Y71.232
G1 X396.500 Y70.500
G1 X403.500 Y70.500 Z0.000
G1 X404.232 Y71.232
G1 X403.500 Y70.500
G1 X403.500 Y54.500 Z0.000
G1 X404.232 Y53.768
G1 X403.500 Y54.500
G1 X396.500 Y54.500 Z0.000
G1 X395.768 Y53.768
G1 X396.500 Y54.500
G0 Z17.000
G0 X408.500 Y49.500 Z17.000
G0 X408.500 Y49.500 Z15.000
G1 X408.500 Y49.500 Z0.000
G1 X424.500 Y49.500 Z0.000
G1 X425.232 Y50.232
G1 X424.500 Y49.500
G1 X424.500 Y42.500 Z0.000
G1 X425.232 Y41.768
G1 X424.500 Y42.500
G1 X408.500 Y42.500 Z0.000
G1 X407.768 Y41.768
G1 X408.500 Y42.500
G1 X408.500 Y49.500 Z0.000
G1 X407.768 Y50.232
G1 X408.500 Y49.500
G0 Z17.000
G0 X480.500 Z17.000
G0 X480.500 Z15.000
G1 X480.500 Y49.500 Z0.000
G1 X496.500 Y49.500 Z0.000
G1 X497.232 Y50.232
G1 X496.500 Y49.500
G1 X496.500 Y42.500 Z0.000
G1 X497.232 Y41.768
G1 X496.500 Y42.500
G1 X480.500 Y42.500 Z0.000
G1 X479.768 Y41.768
G1 X480.500 Y42.500
G1 X480.500 Y49.500 Z0.000
G1 X479.768 Y50.232
G1 X480.500 Y49.500
G0 Z17.000
G0 X552.500 Z17.000
G0 X552.500 Z15.000
G1 X552.500 Y49.500 Z0.000
G1 X568.500 Y49.500 Z0.000
G1 X569.232 Y50.232
G1 X568.500 Y49.500
G1 X568.500 Y42.500 Z0.000
G1 X569.232 Y41.768
G1 X568.500 Y42.500
G1 X552.500 Y42.500 Z0.000
G1 X551.768 Y41.768
G1 X552.500 Y42.500
G1 X552.500 Y49.500 Z0.000
G1 X551.768 Y50.232
G1 X552.500 Y49.500
G0 Z17.000
G0 X573.500 Y54.500 Z17.000
G0 X573.500 Y54.500 Z15.000
G1 X573.500 Y54.500 Z0.000
G1 X573.500 Y70.500 Z0.000
G1 X572.768 Y71.232
G1 X573.500 Y70.500
G1 X580.500 Y70.500 Z0.000
G1 X581.232 Y71.232
G1 X580.500 Y70.500
G1 X580.500 Y54.500 Z0.000
G1 X581.232 Y53.768
G1 X580.500 Y54.500
G1 X573.500 Y54.500 Z0.000
G1 X572.768 Y53.768
G1 X573.500 Y54.500
G0 Z17.000
G0 X585.500 Y49.500 Z17.000
G0 X585.500 Y49.500 Z15.000
G1 X585.500 Y49.500 Z0.000
G1 X601.500 Y49.500 Z0.000
G1 X602.232 Y50.232
G1 X601.500 Y49.500
G1 X601.500 Y42.500 Z0.000
G1 X602.232 Y41.768
G1 X601.500 Y42.500
G1 X585.500 Y42.500 Z0.000
G1 X584.768 Y41.768
G1 X585.500 Y42.500
G1 X585.500 Y49.500 Z0.000
G1 X584.768 Y50.232
G1 X585.500 Y49.500
G0 Z17.000
G0 X657.500 Z17.000
G0 X657.500 Z15.000
G1 X657.500 Y49.500 Z0.000
G1 X673.500 Y49.500 Z0.000
G1 X674.232 Y50.232
G1 X673.500 Y49.500
G1 X673.500 Y42.500 Z0.000
G1 X674.232 Y41.768
G1 X673.500 Y42.500
G1 X657.500 Y42.500 Z0.000
G1 X656.768 Y41.768
G1 X657.500 Y42.500
G1 X657.500 Y49.500 Z0.000
G1 X656.768 Y50.232
G1 X657.500 Y49.500
G0 Z17.000
G0 X729.500 Z17.000
G0 X729.500 Z15.000
G1 X729.500 Y49.500 Z0.000
G1 X745.500 Y49.500 Z0.000
G1 X746.232 Y50.232
G1 X745.500 Y49.500
G1 X745.500 Y42.500 Z0.000
G1 X746.232 Y41.768
G1 X745.500 Y42.500
G1 X729.500 Y42.500 Z0.000
G1 X728.768 Y41.768
G1 X729.500 Y42.500
G1 X729.500 Y49.500 Z0.000
G1 X728.768 Y50.232
G1 X729.500 Y49.500
G0 Z17.000
G0 X750.500 Y54.500 Z17.000
G0 X750.500 Y54.500 Z15.000
G1 X750.500 Y54.500 Z0.000
G1 X750.500 Y70.500 Z0.000
G1 X749.768 Y71.232
G1 X750.500 Y70.500
G1 X757.500 Y70.500 Z0.000
G1 X758.232 Y71.232
G1 X757.500 Y70.500
G1 X757.500 Y54.500 Z0.000
G1 X758.232 Y53.768
G1 X757.500 Y54.500
G1 X750.500 Y54.500 Z0.000
G1 X749.768 Y53.768
G1 X750.500 Y54.500
G0 Z17.000
G0 Y126.500 Z17.000
G0 Y126.500 Z15.000
G1 X750.500 Y126.500 Z0.000
G1 X750.500 Y142.500 Z0.000
G1 X749.768 Y143.232
G1 X750.500 Y142.500
G1 X757.500 Y142.500 Z0.000
G1 X758.232 Y143.232
G1 X757.500 Y142.500
G1 X757.500 Y126.500 Z0.000
G1 X758.232 Y125.768
G1 X757.500 Y126.500
G1 X750.500 Y126.500 Z0.000
G1 X749.768 Y125.768
G1 X750.500 Y126.500
G0 Z17.000
G0 Y198.500 Z17.000
G0 Y198.500 Z15.000
G1 X750.500 Y198.500 Z0.000
G1 X750.500 Y214.500 Z0.000
G1 X749.768 Y215.232
G1 X750.500 Y214.500
G1 X757.500 Y214.500 Z0.000
G1 X758.232 Y215.232
G1 X757.500 Y214.500
G1 X757.500 Y198.500 Z0.000
G1 X758.232 Y197.768
G1 X757.500 Y198.500
G1 X750.500 Y198.500 Z0.000
G1 X749.768 Y197.768
G1 X750.500 Y198.500
G0 Z17.000
G0 X745.500 Y219.500 Z17.000
G0 X745.500 Y219.500 Z15.000
G1 X745.500 Y219.500 Z0.000
G1 X729.500 Y219.500 Z0.000
G1 X728.768 Y218.768
G1 X729.500 Y219.500
G1 X729.500 Y226.500 Z0.000
G1 X728.768 Y227.232
G1 X729.500 Y226.500
G1 X745.500 Y226.500 Z0.000
G1 X746.232 Y227.232
G1 X745.500 Y226.500
G1 X745.500 Y219.500 Z0.000
G1 X746.232 Y218.768
G1 X745.500 Y219.500
G0 Z17.000
G0 X750.500 Y231.500 Z17.000
G0 X750.500 Y231.500 Z15.000
G1 X750.500 Y231.500 Z0.000
G1 X750.500 Y247.500 Z0.000
G1 X749.768 Y248.232
G1 X750.500 Y247.500
G1 X757.500 Y247.500 Z0.000
G1 X758.232 Y248.232
G1 X757.500 Y247.500
G1 X757.500 Y231.500 Z0.000
G1 X758.232 Y230.768
G1 X757.500 Y231.500
G1 X750.500 Y231.500 Z0.000
G1 X749.768 Y230.768
G1 X750.500 Y231.500
G0 Z17.000
G0 Y303.500 Z17.000
G0 Y303.500 Z15.000
G1 X750.500 Y303.500 Z0.000
G1 X750.500 Y319.500 Z0.000
G1 X749.768 Y320.232
G1 X750.500 Y319.500
G1 X757.500 Y319.500 Z0.000
G1 X758.232 Y320.232
